<?xml version="1.0" encoding="UTF-8"?>
<map version="1.10" tiledversion="1.12.1" orientation="orthogonal" renderorder="right-down" width="90" height="60" tilewidth="16" tileheight="16" infinite="0" nextlayerid="9" nextobjectid="72">
 <editorsettings>
  <export target="map.json" format="json"/>
 </editorsettings>
 <tileset firstgid="1" name="tileset" tilewidth="16" tileheight="16" tilecount="247" columns="19">
  <image source="tileset.png" width="304" height="208"/>
 </tileset>
 <tileset firstgid="248" name="props" tilewidth="16" tileheight="16" tilecount="72" columns="12">
  <image source="props.png" width="192" height="96"/>
 </tileset>
 <tileset firstgid="320" name="buildings" tilewidth="16" tileheight="16" tilecount="147" columns="21">
  <image source="buildings.png" width="336" height="112"/>
 </tileset>
 <layer id="1" name="ground" width="90" height="60">
  <data encoding="csv">
0,0,0,0,0,0,0,0,0,0,0,0,0,0,0,0,0,0,0,0,0,0,0,0,0,0,0,0,0,0,0,0,0,0,0,0,0,0,0,0,0,0,0,0,0,0,0,0,0,0,0,0,0,0,0,0,0,0,0,0,0,0,0,0,0,0,0,0,0,0,0,0,0,0,0,0,0,0,0,0,0,0,0,0,0,0,0,0,0,0,
0,0,0,0,0,0,0,0,0,0,0,0,0,0,0,0,0,0,0,0,0,0,0,0,0,0,0,0,0,0,0,0,0,0,0,0,0,0,0,0,0,0,0,0,0,0,0,0,0,0,0,0,0,0,0,0,0,0,0,0,0,0,0,0,0,0,0,0,0,0,0,0,0,0,0,0,0,0,0,0,0,0,0,0,0,0,0,0,0,0,
0,197,197,197,197,197,197,197,197,197,197,197,197,197,197,197,197,197,197,197,197,197,197,197,197,197,197,197,0,0,197,197,197,197,197,197,197,197,197,197,197,197,197,197,197,197,197,197,197,197,197,197,197,197,197,197,197,197,197,197,0,0,197,197,197,197,197,197,197,197,197,197,197,197,197,197,197,197,197,197,197,197,197,197,197,197,197,197,197,0,
0,195,197,197,193,197,212,197,197,197,197,195,195,195,195,197,197,197,195,195,195,197,197,197,195,195,195,197,0,0,197,197,217,195,195,195,197,197,197,197,197,197,197,195,154,154,195,197,197,197,197,197,197,197,195,195,195,197,197,197,0,0,192,194,195,195,195,194,193,194,194,193,193,195,195,195,194,192,217,194,193,194,195,195,195,192,195,194,194,0,
0,195,195,197,197,197,197,197,197,197,197,197,197,197,197,197,197,197,197,197,197,197,197,197,193,197,193,197,0,0,197,197,197,192,194,194,197,197,197,197,197,197,197,195,195,195,195,197,197,194,192,192,193,197,197,197,197,197,197,197,0,0,194,192,192,193,194,192,192,194,194,192,192,194,194,193,192,192,193,192,192,194,217,194,194,194,195,193,193,0,
0,195,197,197,193,197,197,197,197,197,197,192,192,193,193,197,197,193,197,197,193,197,197,197,197,197,197,197,0,0,197,197,197,197,197,197,197,194,192,194,197,197,197,197,195,195,217,197,192,192,194,192,194,197,197,197,197,197,197,197,0,0,192,193,193,192,194,192,192,194,194,194,194,192,193,192,192,192,193,194,192,192,194,193,193,192,194,192,193,0,
0,197,197,197,197,197,197,192,197,197,197,197,197,197,197,197,197,192,193,197,197,197,197,197,197,197,197,197,0,0,197,197,197,197,197,197,197,193,194,192,197,197,197,197,197,197,197,197,193,194,194,193,192,192,193,192,192,192,194,193,0,0,193,194,193,193,194,192,192,192,193,193,193,194,192,192,193,193,194,194,194,193,194,194,194,193,193,192,193,0,
0,197,197,197,192,197,197,193,197,197,197,197,197,197,197,197,197,197,197,197,193,197,197,192,197,197,193,197,0,0,197,197,197,197,193,194,197,192,193,192,197,197,197,197,197,192,193,192,194,192,192,192,193,194,192,192,194,193,194,194,0,0,192,194,194,193,192,193,192,194,194,192,194,193,192,193,192,193,192,192,193,193,194,193,192,193,192,193,192,0,
0,197,197,197,197,197,197,197,197,197,197,197,197,217,197,197,197,197,197,197,192,192,197,192,192,197,192,197,192,192,197,197,197,197,194,193,197,197,197,197,197,197,197,197,197,192,194,194,194,197,197,197,197,193,193,194,193,192,194,192,192,197,194,194,194,193,194,194,194,192,194,192,192,193,192,193,192,193,194,194,193,192,192,192,193,193,192,194,194,0,
0,197,197,217,197,197,197,197,197,197,197,193,197,193,193,197,192,193,197,197,197,193,217,193,192,197,193,192,197,193,197,197,197,197,194,193,197,197,197,197,197,197,197,197,197,194,194,194,192,197,197,197,197,192,193,194,193,194,192,194,194,192,194,192,193,194,194,192,194,193,192,192,192,192,194,192,193,193,193,192,194,194,192,192,192,193,212,192,194,0,
0,197,217,192,192,197,197,192,197,197,197,193,197,193,197,192,197,197,197,197,192,192,197,192,192,197,197,192,197,197,197,197,197,197,197,197,197,193,192,192,194,194,193,197,197,197,197,197,197,197,197,197,197,194,194,193,192,194,194,194,194,194,193,193,192,193,194,193,193,194,192,197,197,197,197,197,197,197,197,197,197,197,197,197,193,195,195,195,194,0,
0,193,197,197,193,197,197,197,197,197,193,192,197,197,197,197,197,197,197,197,193,193,197,197,197,197,197,197,197,193,193,197,197,197,197,197,197,194,194,192,193,194,192,197,197,197,197,197,197,197,197,197,197,193,192,193,192,194,193,192,197,197,192,194,194,192,194,194,194,194,193,197,197,197,197,197,197,197,197,197,197,197,197,197,194,193,195,194,192,0,
0,193,192,192,192,193,197,192,197,197,197,197,197,197,193,197,197,197,197,197,192,192,197,197,197,197,197,197,197,192,192,197,197,197,197,197,197,193,194,194,193,192,193,197,197,197,197,197,197,197,197,197,197,197,197,197,197,197,197,197,0,0,194,192,192,194,192,194,193,193,194,197,197,197,197,197,197,197,197,197,197,197,197,197,194,193,195,192,193,0,
0,197,192,192,197,193,197,193,197,197,197,197,197,197,197,197,197,197,197,197,192,192,197,197,197,197,197,197,0,0,197,197,197,197,197,197,197,192,193,192,194,194,192,197,197,197,197,197,197,197,197,197,197,197,197,197,197,197,197,197,0,0,192,193,193,192,192,194,192,193,193,197,197,197,197,197,197,197,197,197,197,197,197,197,193,193,195,192,192,0,
0,192,193,192,193,197,197,197,197,197,197,197,197,192,192,197,197,197,197,197,193,192,197,197,197,197,197,197,0,0,197,197,197,197,197,197,197,197,197,197,197,197,197,197,197,197,197,197,197,197,197,197,197,197,197,197,197,197,197,197,0,0,192,194,192,192,192,194,193,194,192,197,197,194,193,194,194,217,194,194,194,193,192,192,193,194,195,193,192,0,
0,197,197,193,193,197,197,197,197,197,197,197,197,193,193,197,197,193,193,197,197,197,197,197,197,197,197,197,0,0,197,197,197,197,197,197,197,197,197,197,197,197,197,197,197,197,197,197,197,197,197,197,197,197,197,197,197,197,197,197,0,0,193,193,194,193,192,192,193,193,192,197,197,194,217,192,192,193,194,192,193,192,194,193,193,193,195,194,193,0,
0,193,192,192,197,193,197,193,192,193,197,197,197,192,193,192,197,192,192,197,197,197,197,193,193,193,197,197,0,0,197,197,197,197,197,197,197,197,197,197,197,197,197,197,197,197,197,197,197,197,197,197,197,197,197,197,197,197,197,197,0,0,194,194,195,195,195,195,195,193,194,197,197,194,194,195,195,195,195,195,195,195,195,195,195,195,195,194,192,0,
0,197,197,197,195,197,197,197,192,197,192,197,197,197,197,197,197,197,197,197,197,197,195,195,195,195,197,197,0,0,197,197,197,197,197,197,197,197,197,197,197,197,197,197,197,197,197,197,197,197,197,197,197,197,197,197,197,197,197,197,0,0,194,194,194,194,193,194,193,194,193,197,197,194,194,195,193,193,192,194,192,192,192,192,194,193,193,193,192,0,
0,197,197,197,195,197,197,197,197,197,197,197,197,197,197,197,197,197,197,197,192,197,192,197,197,197,197,197,0,0,197,197,197,197,197,197,197,197,197,197,197,197,197,197,197,197,197,197,197,197,197,197,197,197,197,197,197,197,197,197,0,0,194,192,192,193,217,192,194,194,194,197,197,192,194,195,192,193,194,193,193,192,192,193,193,192,192,192,192,0,
0,0,0,0,0,0,0,0,0,0,0,0,0,193,197,193,193,197,0,0,0,0,0,0,0,0,0,0,0,0,0,0,0,0,0,0,0,0,0,0,0,0,0,0,0,0,0,0,0,0,0,0,0,0,0,0,0,0,0,0,0,0,0,0,0,0,0,0,0,0,0,0,0,192,194,195,197,197,0,0,0,0,0,0,0,0,0,0,0,0,
0,0,0,0,0,0,0,0,0,0,0,0,0,197,195,195,195,197,0,0,0,0,0,0,0,0,0,0,0,0,0,0,0,0,0,0,0,0,0,0,0,0,0,0,0,0,0,0,0,0,0,0,0,0,0,0,0,0,0,0,0,0,0,0,0,0,0,0,0,0,0,0,0,197,197,195,197,197,0,0,0,0,0,0,0,0,0,0,0,0,
0,0,0,0,0,0,0,0,0,0,0,0,0,197,197,192,193,197,0,0,0,0,0,0,0,0,0,0,0,0,0,0,0,0,0,0,0,0,0,0,0,0,0,0,0,0,0,0,0,0,0,0,0,0,0,0,0,0,193,193,0,0,0,0,0,0,0,0,0,0,0,0,0,197,197,195,192,197,0,0,0,0,0,0,0,0,0,0,0,0,
0,197,197,197,197,197,197,197,197,197,197,197,197,197,197,212,197,197,197,197,197,197,197,197,197,197,197,197,0,0,197,197,195,195,197,197,197,195,195,0,0,0,0,0,0,0,0,0,0,0,0,195,195,197,192,197,195,195,192,192,0,0,197,197,197,197,197,193,193,193,193,193,193,197,195,195,195,197,214,197,197,197,197,197,197,197,197,197,197,0,
0,197,197,197,197,197,192,192,192,193,197,197,197,197,197,197,192,193,193,197,197,197,197,197,197,197,197,197,0,0,193,192,195,195,194,197,195,195,0,0,0,0,0,0,0,0,0,0,0,0,0,0,195,195,192,194,195,195,192,197,0,0,197,217,197,213,197,193,193,193,193,193,193,197,197,212,197,197,197,197,197,197,197,197,197,197,197,197,197,0,
0,197,197,197,197,197,197,197,197,197,197,197,197,192,197,193,193,193,197,197,197,197,192,197,192,193,192,192,0,0,192,197,195,195,194,197,195,0,0,0,0,0,0,194,194,194,194,0,0,0,0,0,0,195,197,194,195,195,192,193,0,0,197,197,197,197,214,193,192,193,193,193,193,197,197,213,197,197,197,197,193,193,193,193,197,197,192,197,197,0,
0,197,197,197,197,193,193,192,197,197,197,197,197,192,215,193,215,197,193,197,197,197,197,197,193,193,193,192,0,0,197,193,195,195,197,194,195,0,0,0,0,0,0,194,154,154,194,0,0,0,0,0,0,195,194,192,195,195,197,197,0,0,197,197,193,193,193,193,194,194,194,194,193,197,194,194,194,197,197,194,194,194,194,193,197,197,197,197,197,0,
0,197,197,197,193,193,193,193,197,197,197,197,195,197,215,192,193,192,195,197,197,193,192,197,192,217,192,192,0,0,195,195,195,195,195,195,195,0,0,0,0,0,0,194,194,194,194,0,0,0,0,0,0,195,195,195,195,195,195,195,0,0,197,197,193,193,193,193,194,194,194,194,197,197,194,194,194,197,197,194,194,194,194,193,193,193,193,197,197,0,
0,197,197,193,193,192,193,197,197,197,197,197,195,197,215,215,215,197,195,197,197,192,192,193,192,192,193,192,0,0,195,195,195,195,195,195,195,0,0,0,0,0,0,194,194,194,194,0,0,0,0,0,0,195,195,195,195,195,195,195,0,0,197,197,193,193,193,193,194,194,194,194,197,197,194,194,194,197,197,194,194,194,194,193,193,193,193,197,197,0,
0,197,197,197,197,197,192,197,197,197,197,197,195,197,197,197,192,193,195,197,197,192,192,192,197,193,193,193,0,0,195,195,195,195,195,195,195,0,0,0,0,0,0,0,194,194,0,0,0,0,0,0,0,195,195,195,195,195,195,195,0,0,197,197,197,197,197,197,194,194,194,194,197,197,194,194,194,197,193,194,194,194,194,193,193,193,214,195,195,0,
0,197,197,197,193,193,192,192,197,197,192,193,195,197,197,197,193,193,195,197,197,192,192,193,193,197,197,192,0,0,197,197,197,197,192,193,195,0,0,0,0,0,0,0,194,194,0,0,0,0,0,0,0,195,197,192,192,192,197,197,0,0,197,197,197,213,197,197,194,194,194,194,214,197,194,194,194,197,193,194,194,217,194,193,197,197,197,195,195,0,
0,197,197,197,197,197,197,197,197,197,197,197,195,197,197,197,197,197,195,197,197,197,193,192,193,192,193,192,0,0,197,197,192,193,193,197,195,0,0,0,0,0,0,0,194,194,0,0,0,0,0,0,0,195,197,192,192,197,197,197,0,0,197,197,197,214,197,197,194,194,194,194,197,197,194,194,194,197,193,194,194,194,194,193,197,197,197,197,197,0,
0,197,197,197,197,197,197,197,197,197,197,197,195,193,197,193,192,197,195,197,197,197,197,197,197,197,197,197,0,0,197,193,193,193,197,197,195,195,0,0,0,0,0,0,194,194,0,0,0,0,0,0,195,195,197,193,197,192,192,197,0,0,197,197,197,197,197,197,194,194,194,194,197,197,194,194,194,193,193,194,194,194,194,193,197,197,197,197,197,0,
0,197,197,197,197,197,197,197,192,193,193,197,197,197,192,212,217,193,193,193,197,197,197,197,197,197,197,197,0,0,197,193,197,197,197,197,197,195,195,0,0,0,0,0,194,194,0,0,0,0,0,195,195,197,197,193,192,193,193,197,0,0,197,197,197,197,197,197,194,194,194,194,197,197,194,194,194,193,193,194,194,194,194,197,197,197,197,197,197,0,
0,197,192,197,197,197,197,197,192,197,197,197,197,193,197,197,193,197,197,192,192,197,197,197,192,193,192,197,0,0,197,197,192,193,193,197,197,197,195,195,195,195,195,195,195,195,195,195,195,195,195,195,197,197,192,192,197,192,192,197,0,0,197,197,197,197,197,197,197,197,197,197,197,197,197,197,197,197,197,197,197,197,197,197,197,197,197,197,197,0,
0,197,192,197,192,197,197,197,192,193,192,197,197,197,197,197,197,197,197,197,197,197,197,197,193,193,192,197,0,0,197,197,192,193,197,197,197,197,197,197,197,197,197,195,195,195,195,197,197,197,197,197,197,197,197,192,193,197,192,197,0,0,197,197,197,197,192,193,193,193,193,197,197,197,197,197,197,197,197,197,197,197,197,197,192,197,197,197,197,0,
0,197,197,197,197,197,197,197,192,192,197,197,197,197,197,197,193,197,197,197,197,197,197,197,197,197,197,197,0,0,197,193,193,193,193,197,197,197,197,197,194,194,197,195,195,195,195,197,194,194,197,197,197,197,197,197,197,193,193,197,0,0,197,197,197,197,197,193,193,193,197,197,197,193,193,213,197,197,193,193,193,193,197,197,197,197,197,197,197,0,
0,197,197,197,197,197,197,197,197,197,197,197,197,197,197,197,197,197,197,197,197,197,197,197,197,197,197,197,0,0,197,197,197,193,192,197,194,194,194,194,194,194,194,195,195,195,195,194,194,194,194,194,194,194,194,194,194,193,193,197,0,0,197,197,197,197,197,197,197,197,197,197,197,197,197,197,197,197,197,197,197,197,197,197,197,197,197,197,197,0,
0,197,197,197,197,197,197,197,197,197,197,197,197,0,0,0,0,0,197,197,197,197,197,197,197,197,197,197,0,0,197,197,192,194,194,194,194,194,194,194,194,194,194,195,195,195,195,194,194,194,194,194,194,194,194,194,194,193,193,197,0,0,0,0,0,0,0,0,0,0,0,0,0,0,0,0,0,0,0,0,0,0,0,0,0,0,0,0,0,0,
0,197,197,197,197,197,197,197,197,197,197,197,197,0,0,0,0,0,197,197,197,197,197,197,197,197,197,197,0,0,197,197,197,194,197,197,197,193,194,192,192,197,197,195,195,195,195,197,192,193,192,194,197,197,192,193,194,197,192,197,0,0,0,0,0,0,0,0,0,0,0,0,0,0,0,0,0,0,0,0,0,0,0,0,0,0,0,0,0,0,
0,0,0,0,0,0,0,0,0,0,0,0,0,0,0,0,0,0,0,0,0,0,0,0,0,0,0,0,0,0,0,0,197,194,197,0,192,192,194,192,193,0,197,195,195,195,195,197,192,192,197,194,197,0,0,197,194,197,0,0,0,0,0,0,0,0,0,0,0,0,0,0,0,0,0,0,0,0,0,0,0,0,0,0,0,0,0,0,0,0,
0,0,0,0,0,0,0,0,0,0,0,0,0,0,0,0,0,0,0,0,0,0,0,0,0,0,0,0,0,0,0,0,197,194,197,0,193,193,194,197,197,0,197,195,195,195,195,197,193,193,193,194,197,0,0,197,194,197,0,0,0,0,0,0,0,0,0,0,0,0,0,0,0,0,0,0,0,0,0,0,0,0,0,0,0,0,0,0,0,0,
0,0,0,0,0,0,0,0,0,0,0,0,0,0,0,0,0,0,0,0,0,0,0,0,0,0,0,0,0,0,0,0,197,194,197,0,197,197,194,197,193,0,197,195,195,195,195,197,0,0,197,194,197,0,0,197,194,197,0,0,0,0,0,0,0,0,0,0,0,0,0,0,0,0,0,0,0,0,0,0,0,0,0,0,0,0,0,0,0,0,
0,197,197,197,195,192,197,197,197,192,197,197,197,197,197,197,197,197,197,197,192,197,197,192,193,197,197,197,0,0,197,197,197,194,197,197,197,197,194,197,197,197,197,195,195,195,195,197,197,197,197,194,197,197,197,197,194,197,197,197,0,0,0,0,0,0,0,0,0,0,0,0,0,0,0,0,0,0,0,0,0,0,0,0,0,0,0,0,0,0,
0,197,197,197,195,197,197,197,197,197,197,197,197,197,197,197,197,197,197,197,192,193,193,193,193,197,197,197,0,0,197,197,197,194,197,197,197,197,194,193,197,193,192,193,195,195,193,197,197,197,197,194,197,197,197,197,194,197,197,197,0,0,0,0,0,0,0,0,0,0,0,0,0,0,0,0,0,0,0,0,0,0,0,0,0,0,0,0,0,0,
0,197,197,197,195,197,192,193,192,197,192,197,192,197,197,197,197,197,197,197,192,193,193,193,192,197,197,197,0,0,197,197,197,194,197,193,192,193,194,197,197,197,197,197,194,194,197,197,197,193,197,194,197,193,192,197,194,197,197,197,0,0,197,197,197,197,197,197,197,197,197,197,197,197,197,197,197,197,197,197,197,197,197,212,212,197,197,197,197,0,
0,197,197,197,195,197,197,197,193,193,192,197,197,197,194,194,194,197,197,197,197,197,193,192,192,197,197,197,0,0,197,193,193,194,193,193,197,192,194,197,197,197,197,197,194,194,197,197,197,197,192,194,192,197,193,193,194,197,197,197,0,0,197,197,217,197,197,197,197,197,197,197,197,197,197,197,197,197,197,197,197,197,197,197,197,197,197,197,192,0,
0,197,197,197,195,197,197,193,197,193,197,192,193,197,194,194,192,194,197,197,197,197,197,197,197,193,193,193,0,0,197,197,192,194,197,193,193,192,194,197,197,197,197,197,194,194,197,197,197,193,192,194,193,193,197,192,194,197,197,197,0,0,197,192,197,197,197,197,197,197,213,197,197,214,193,193,193,193,193,197,197,197,197,197,197,193,193,194,194,0,
0,197,197,197,195,197,197,193,192,193,197,193,192,197,194,194,194,194,197,197,197,197,197,197,197,193,197,197,0,0,197,197,197,194,197,197,197,197,194,197,197,197,197,197,194,194,197,197,197,192,192,194,193,197,197,197,194,197,197,197,0,0,197,197,197,193,193,192,193,193,197,197,197,197,193,195,195,193,193,197,197,197,197,197,197,194,194,194,192,0,
0,197,197,197,195,197,197,192,193,192,197,193,192,197,194,194,194,194,197,197,197,197,197,197,197,197,197,195,197,197,197,197,197,194,197,197,197,197,194,197,193,197,197,193,194,194,192,193,193,197,197,194,197,197,197,197,194,197,197,193,0,0,197,197,197,193,192,192,194,194,197,197,197,197,193,195,195,193,197,197,197,197,213,197,197,192,193,194,194,0,
0,197,197,197,195,197,197,197,197,197,197,197,197,197,194,194,194,194,194,194,194,194,194,194,194,192,194,195,197,192,194,194,194,194,194,194,194,194,194,194,194,194,194,194,194,194,194,194,194,194,194,194,194,194,194,194,194,193,192,197,0,0,197,197,197,192,192,192,193,192,194,194,194,192,195,195,195,193,194,194,197,197,214,197,197,197,197,197,197,0,
0,197,197,197,195,197,197,197,197,197,197,197,197,197,194,194,194,192,194,194,194,194,194,194,194,194,194,195,197,197,194,194,194,194,194,194,194,194,194,194,194,194,194,194,194,194,194,194,194,194,194,194,194,194,194,194,194,197,193,192,0,0,197,197,197,197,192,192,194,193,192,194,194,194,195,195,195,192,192,193,197,197,197,197,197,197,197,197,197,0,
0,197,197,197,195,197,197,193,193,192,197,197,197,197,192,194,194,194,197,197,197,197,192,197,193,193,197,195,192,197,193,197,197,197,197,197,197,197,197,197,197,193,192,197,192,192,193,197,192,197,197,197,197,197,197,197,192,193,193,197,0,0,197,197,213,197,193,193,194,193,193,192,193,193,195,195,195,194,194,194,197,197,197,197,197,197,197,197,197,0,
0,197,197,197,195,197,197,197,197,197,197,197,197,197,197,197,197,197,197,197,197,197,197,192,192,193,197,197,0,0,197,197,197,192,193,193,193,197,197,197,192,193,193,193,197,193,192,193,193,192,193,197,192,193,192,192,192,192,197,197,0,0,197,192,197,197,197,193,193,193,193,192,194,193,195,195,217,192,194,194,193,193,193,193,192,193,193,197,197,0,
0,197,197,197,195,192,197,197,197,193,197,193,197,192,192,193,197,197,197,197,197,197,197,197,197,193,197,192,0,0,197,192,193,197,193,192,197,197,197,197,197,197,193,192,192,197,193,192,197,192,197,197,197,192,193,192,197,197,192,197,0,0,197,197,197,197,197,193,193,193,192,192,192,194,195,195,193,193,192,194,193,194,193,193,192,193,192,197,197,0,
0,197,197,197,195,197,197,193,197,193,197,197,197,197,197,197,197,192,197,193,193,197,192,192,193,197,197,197,0,0,197,193,197,192,192,197,192,197,197,192,192,197,197,192,197,197,197,192,193,197,193,197,192,192,192,192,197,197,192,197,0,0,197,197,197,197,197,193,193,193,192,192,192,194,195,195,194,192,194,192,193,193,197,197,193,193,197,197,197,0,
0,197,197,197,195,197,197,197,193,193,197,197,197,197,197,197,197,192,197,193,192,192,192,193,193,192,197,197,0,0,197,197,197,193,192,193,197,197,197,192,193,192,197,192,197,193,192,192,197,197,193,193,193,193,197,192,197,192,197,197,0,0,197,193,194,194,194,197,197,197,193,192,193,193,195,195,194,194,194,193,192,194,197,197,193,193,197,197,195,0,
0,197,197,197,195,197,197,192,193,192,192,192,197,192,195,195,195,197,197,192,197,193,197,197,193,192,197,197,0,0,197,197,193,192,192,197,197,197,197,197,197,197,197,197,197,197,197,197,197,197,197,192,193,193,192,197,197,197,197,197,0,0,197,193,192,193,193,197,197,214,192,194,194,194,192,195,192,194,192,194,197,197,197,197,197,197,197,197,195,0,
0,197,197,197,195,197,197,197,197,192,192,197,197,197,154,154,154,197,197,197,197,192,197,197,197,197,197,197,0,0,192,193,192,193,192,193,192,197,197,197,197,197,197,197,197,197,197,197,197,192,197,197,193,193,192,197,197,197,197,193,0,0,197,197,197,197,192,194,193,197,197,192,217,195,195,193,195,193,197,197,197,197,197,197,197,193,192,197,195,0,
0,197,197,197,195,197,197,192,197,192,192,192,197,197,197,197,197,192,197,197,197,197,197,197,197,197,197,197,0,0,192,192,197,193,192,192,193,197,197,197,197,197,197,197,197,197,197,197,197,197,197,197,197,197,197,197,197,197,193,192,0,0,197,193,197,197,194,194,192,197,197,197,197,195,195,195,195,197,197,197,197,197,197,197,197,197,197,197,197,0,
0,0,0,0,0,0,0,0,0,0,0,0,0,0,0,0,0,0,0,0,0,0,0,0,0,0,0,0,0,0,0,0,0,0,0,0,0,0,0,0,0,0,0,0,0,0,0,0,0,0,0,0,0,0,0,0,0,0,0,0,0,0,0,0,0,0,0,0,0,0,0,0,0,0,0,0,0,0,0,0,0,0,0,0,0,0,0,0,0,0
</data>
 </layer>
 <objectgroup id="3" name="objects">
  <object id="1" name="Player" type="Player" x="1407.75" y="904.417"/>
  <object id="2" name="Computer" type="Computer" x="719.583" y="405.917"/>
  <object id="3" name="Computer" type="Computer" x="1417.33" y="459"/>
  <object id="4" name="Computer" type="Computer" x="721" y="54.6667"/>
  <object id="5" name="Computer" type="Computer" x="22.75" y="73.4166"/>
  <object id="6" name="Computer" type="Computer" x="246.334" y="922"/>
  <object id="7" name="Enemy" type="Enemy" x="1271.5" y="740.5"/>
  <object id="8" name="Enemy" type="Enemy" x="1154" y="741.5"/>
  <object id="9" name="Enemy" type="Enemy" x="1248.67" y="458.667"/>
  <object id="10" name="Enemy" type="Enemy" x="1166.17" y="460"/>
  <object id="11" name="Enemy" type="Enemy" x="1052.33" y="537.833"/>
  <object id="12" name="Door02" type="Door" x="462.503" y="804.622" rotation="90"/>
  <object id="13" name="Enemy" type="Enemy" x="1055" y="386.5"/>
  <object id="14" name="Enemy" type="Enemy" x="1064" y="212"/>
  <object id="15" name="Enemy" type="Enemy" x="1064.67" y="70"/>
  <object id="16" name="Enemy" type="Enemy" x="550.667" y="81.3334"/>
  <object id="17" name="Enemy" type="Enemy" x="889.333" y="80"/>
  <object id="18" name="Enemy" type="Enemy" x="670.667" y="199.333"/>
  <object id="19" name="Enemy" type="Enemy" x="768.667" y="197.333"/>
  <object id="20" name="Enemy" type="Enemy" x="80" y="288"/>
  <object id="21" name="Enemy" type="Enemy" x="45.3333" y="244"/>
  <object id="22" name="Enemy" type="Enemy" x="241.333" y="68"/>
  <object id="23" name="Enemy" type="Enemy" x="416" y="469.333"/>
  <object id="24" name="Enemy" type="Enemy" x="370" y="472"/>
  <object id="25" name="Enemy" type="Enemy" x="134.667" y="444"/>
  <object id="26" name="Enemy" type="Enemy" x="56" y="401.333"/>
  <object id="27" name="Enemy" type="Enemy" x="148" y="726.666"/>
  <object id="28" name="Enemy" type="Enemy" x="347.333" y="726"/>
  <object id="29" name="Enemy" type="Enemy" x="418.667" y="918.666"/>
  <object id="31" name="Enemy" type="Enemy" x="671.333" y="710"/>
  <object id="32" name="Enemy" type="Enemy" x="765.333" y="710"/>
  <object id="33" name="Enemy" type="Enemy" x="723.333" y="896.667"/>
  <object id="34" name="Enemy" type="Enemy" x="877.333" y="895.333"/>
  <object id="35" name="Enemy" type="Enemy" x="912.666" y="373.334"/>
  <object id="36" name="Enemy" type="Enemy" x="525.333" y="373.333"/>
  <object id="37" name="Enemy" type="Enemy" x="526" y="484"/>
  <object id="38" name="Enemy" type="Enemy" x="910" y="480.667"/>
  <object id="41" name="Enemy" type="Enemy" x="87.3333" y="513.333"/>
  <object id="45" name="Boss" type="Enemy" x="722" y="801"/>
  <object id="50" name="Exit" x="1200" y="941">
   <point/>
  </object>
  <object id="54" name="Door01" type="Door" x="127.947" y="128.36"/>
  <object id="64" name="Enemy" type="Enemy" x="110" y="912.666"/>
  <object id="65" name="Enemy" type="Enemy" x="572" y="896"/>
  <object id="69" name="Enemy" type="Enemy" x="1373.33" y="62.6667"/>
 </objectgroup>
 <layer id="4" name="walls" width="90" height="60">
  <data encoding="csv">
154,136,136,136,136,136,154,154,154,154,154,154,136,136,136,136,154,154,154,154,154,154,154,154,154,154,154,154,154,154,154,154,154,154,154,154,154,154,154,154,154,154,154,154,154,154,154,154,154,154,154,154,154,154,154,154,154,154,154,154,154,154,154,154,154,154,154,154,154,154,154,154,154,154,154,154,154,154,154,154,154,154,154,154,154,154,154,154,154,154,
154,155,154,154,154,154,154,154,155,154,154,154,154,154,154,154,154,155,154,154,154,154,154,154,154,154,154,156,154,154,154,154,154,154,154,154,154,154,154,154,154,154,154,154,154,154,154,154,154,154,154,154,154,154,154,154,154,154,154,154,154,154,154,154,154,154,154,154,154,154,154,154,154,154,154,154,154,154,154,154,154,154,154,154,154,154,154,154,154,154,
154,154,154,154,154,154,154,154,173,154,154,154,154,154,154,156,154,154,154,154,154,155,154,154,154,154,154,154,154,154,154,154,154,154,154,154,154,154,154,154,154,154,154,154,154,154,154,154,154,154,154,154,154,154,154,154,154,154,154,154,154,154,154,154,154,154,154,154,154,154,154,154,154,154,154,154,154,154,154,154,154,154,154,154,154,154,154,154,154,154,
154,0,0,0,0,0,0,0,0,154,0,0,0,0,0,0,154,0,0,0,0,0,154,0,0,0,0,0,154,154,0,0,0,0,0,0,0,0,0,0,0,0,0,0,290,290,0,0,0,0,0,0,0,0,0,0,0,0,0,0,154,154,0,0,0,0,0,0,0,0,0,0,0,0,0,0,0,0,0,303,304,305,313,0,0,0,0,0,0,154,
154,314,0,0,0,0,0,0,0,154,0,0,0,0,0,0,154,0,0,0,0,0,154,0,0,0,0,0,154,154,0,0,0,0,0,0,0,0,0,0,0,0,0,0,0,0,0,0,0,0,0,0,0,0,0,0,0,0,0,0,154,154,0,0,0,0,0,0,0,0,0,0,0,0,0,0,0,0,0,0,0,0,0,0,0,0,0,0,154,154,
154,0,0,0,0,0,0,0,0,154,0,0,0,0,0,0,154,0,0,0,0,0,154,0,0,0,0,0,154,154,0,0,0,0,0,0,0,0,0,0,0,0,0,0,0,0,0,0,0,0,0,0,0,0,0,0,0,0,0,0,154,154,0,0,0,0,0,0,0,0,0,0,0,0,0,0,0,0,0,0,0,0,0,0,0,0,0,0,0,154,
154,0,0,0,0,0,0,0,0,154,0,0,0,0,0,0,136,0,0,154,0,0,154,0,0,154,0,0,154,154,0,0,0,0,0,0,0,0,0,0,0,0,0,0,0,0,0,0,0,0,0,0,0,0,0,0,0,0,0,0,154,154,0,0,0,0,0,0,0,0,0,0,0,0,0,0,0,0,0,0,0,0,0,0,0,0,0,0,0,154,
154,154,154,154,154,154,154,0,0,154,0,0,154,173,173,155,173,0,0,154,0,0,154,0,0,154,0,0,154,154,0,0,0,0,0,0,0,0,0,0,0,0,0,0,0,0,0,0,0,0,0,0,0,0,0,0,0,0,0,0,154,154,0,0,0,0,0,0,0,0,0,0,0,0,299,299,0,299,299,0,299,299,0,0,0,0,0,0,0,154,
154,154,154,154,154,154,154,0,0,154,0,0,154,0,0,0,0,0,0,154,0,0,154,0,0,154,0,0,0,0,0,0,0,0,0,0,0,0,0,0,0,0,0,0,0,0,0,0,0,0,0,0,0,0,0,0,0,0,0,0,0,0,0,0,0,0,0,0,0,0,0,0,0,0,0,0,0,0,0,0,0,0,0,0,0,0,0,0,0,154,
154,309,310,0,0,0,0,0,0,154,0,0,154,0,0,0,0,0,0,154,0,0,0,0,0,154,0,0,0,0,0,0,0,0,0,0,0,0,0,0,0,0,0,0,0,0,0,0,0,0,0,0,0,0,0,0,0,0,0,0,0,0,0,0,0,0,0,0,0,0,0,0,0,0,0,0,0,0,0,0,0,0,0,0,0,0,0,0,0,154,
154,308,0,0,0,0,0,0,0,154,0,0,154,0,0,0,0,0,0,154,0,0,0,0,0,154,0,0,0,0,0,0,0,0,0,0,0,0,0,0,0,0,0,0,0,0,0,0,0,0,0,0,0,0,0,0,0,0,0,0,0,0,0,0,0,0,0,0,0,0,0,0,0,0,0,0,0,0,0,0,0,0,0,0,0,0,0,0,0,154,
154,0,0,0,0,0,0,0,0,154,0,0,154,0,0,0,154,0,0,154,0,0,0,0,0,154,0,0,0,0,0,0,0,0,0,0,0,0,0,0,0,0,0,0,0,0,0,0,0,0,0,0,0,0,0,0,0,0,0,0,0,0,0,0,0,0,0,0,0,0,0,0,0,0,0,0,0,0,0,0,0,0,0,0,0,0,0,0,0,154,
154,0,0,0,0,0,154,0,0,154,0,0,154,0,0,0,154,0,0,154,0,0,154,0,0,154,0,0,0,0,0,0,0,311,311,311,281,311,311,311,0,0,0,0,0,0,0,0,0,0,311,311,311,281,311,311,311,0,0,0,154,154,0,0,0,0,0,0,0,0,0,154,154,154,154,154,154,154,154,154,154,154,154,154,0,0,0,0,0,154,
154,0,0,0,0,0,154,0,0,154,0,0,154,0,0,0,154,0,0,154,0,0,154,0,0,154,0,0,0,0,0,0,0,0,0,0,0,0,0,0,0,0,0,0,299,299,0,0,0,0,0,0,0,0,0,0,0,0,0,0,154,154,0,0,0,0,0,0,0,0,0,154,154,154,154,154,154,154,154,154,154,154,154,154,0,0,0,0,0,154,
154,149,0,0,0,0,154,0,0,154,0,0,154,0,0,0,154,0,0,154,0,0,154,0,0,154,0,0,0,0,92,92,92,92,92,92,92,92,92,92,92,92,92,92,92,92,92,92,92,92,92,92,92,92,92,92,92,92,92,92,154,154,0,0,0,0,0,0,0,0,0,154,154,0,308,309,310,0,0,0,0,0,0,0,0,0,0,0,0,154,
154,168,169,0,0,0,154,0,0,154,0,0,154,0,0,0,154,0,0,154,0,0,154,0,0,154,0,0,154,154,111,111,111,111,111,111,111,111,111,111,111,111,111,111,111,111,111,111,111,111,111,111,111,111,111,111,111,111,111,111,154,154,0,0,0,311,311,311,0,0,0,154,154,0,0,0,0,0,0,0,0,0,0,0,0,0,0,0,0,154,
154,187,188,189,0,0,154,0,0,0,0,0,0,0,0,0,154,0,0,154,0,0,0,0,0,0,0,0,154,154,111,111,111,111,111,111,111,111,111,111,111,111,111,111,111,111,111,111,111,111,111,111,111,111,111,111,111,111,111,111,154,154,0,0,0,314,314,314,0,0,0,154,154,0,0,0,0,0,0,0,0,0,0,0,0,0,0,0,0,154,
154,206,207,208,0,0,154,0,0,0,0,0,0,0,0,0,154,0,0,154,0,0,0,0,0,0,0,0,154,154,0,0,0,0,0,0,0,0,0,0,0,0,0,0,0,0,0,0,0,0,0,0,0,0,0,0,0,0,0,0,154,154,0,0,0,311,311,311,0,0,0,154,154,0,0,0,0,0,0,0,0,0,0,0,0,0,0,0,0,154,
154,225,226,227,0,0,154,0,0,0,0,0,0,0,0,0,154,154,154,154,0,0,0,0,0,0,0,0,154,154,0,0,0,0,0,0,0,0,0,0,0,0,0,0,0,0,0,0,0,0,0,0,0,0,0,0,0,0,0,0,154,154,0,0,0,0,0,0,0,0,0,154,154,0,0,0,0,0,0,0,0,0,0,0,0,0,0,0,0,154,
154,0,0,0,0,0,0,0,0,0,0,0,0,0,0,0,0,0,0,0,0,0,0,0,0,0,0,0,154,154,154,154,154,154,154,154,154,154,154,154,154,154,154,154,154,154,154,154,154,154,154,154,154,154,154,154,154,154,154,154,154,154,0,0,0,0,0,0,0,0,0,0,0,0,0,0,0,0,0,0,0,0,0,0,0,0,0,0,0,154,
154,0,0,0,0,0,0,0,0,0,0,0,0,0,0,0,0,0,0,0,0,0,0,0,0,0,0,0,154,154,154,154,154,154,154,154,154,154,154,154,154,154,154,154,154,154,154,154,154,154,154,154,154,154,154,154,154,154,154,154,154,154,0,0,0,0,0,0,0,0,0,0,0,0,0,0,0,0,0,0,0,0,0,0,0,0,0,0,0,154,
154,154,154,154,154,154,154,154,154,154,154,154,154,0,0,0,0,0,154,154,154,154,154,154,154,154,154,154,154,154,154,154,154,154,154,154,154,154,154,154,154,154,154,154,53,53,154,154,154,154,154,154,154,154,154,154,154,154,154,154,154,154,154,154,154,154,154,154,154,154,154,154,154,0,0,0,0,0,154,154,154,154,154,154,154,154,154,154,154,154,
154,154,154,154,154,154,154,154,154,154,154,154,154,0,0,0,0,0,154,154,154,154,154,154,154,154,154,154,154,154,0,0,0,0,0,0,0,0,0,91,92,92,92,92,72,72,92,92,92,92,92,0,0,0,0,0,0,0,0,0,154,154,154,154,277,278,277,278,154,280,154,154,154,0,0,0,0,0,154,154,277,278,277,278,154,279,280,154,154,154,
154,0,0,0,0,0,0,0,0,0,0,0,0,0,0,0,0,0,0,0,0,0,0,0,0,0,0,319,154,154,0,0,0,0,0,0,0,0,91,111,111,111,111,111,111,111,111,111,111,111,111,93,0,0,0,0,0,0,0,0,154,154,0,0,0,0,0,0,0,0,0,0,0,0,0,0,0,0,0,0,0,0,0,0,0,0,0,0,0,154,
154,0,0,0,0,0,0,0,0,0,0,0,0,0,0,0,0,0,0,0,0,0,311,311,311,0,0,0,154,154,0,0,0,0,0,283,0,91,111,111,111,111,111,0,0,0,0,111,111,111,111,111,93,0,283,0,0,0,0,0,154,154,0,0,0,0,0,0,0,0,0,0,0,0,0,0,0,0,0,0,0,0,0,0,0,0,0,0,0,154,
154,0,0,0,0,0,0,0,0,0,0,0,0,0,0,0,0,0,0,0,0,0,314,314,314,0,0,0,154,154,0,0,0,0,0,0,0,110,111,111,111,111,111,0,290,290,0,111,111,111,111,111,112,0,0,0,0,0,0,0,154,154,0,0,0,0,0,0,0,0,0,0,0,0,0,299,0,0,0,0,0,0,0,0,0,0,0,0,0,154,
154,0,0,0,0,0,0,0,0,0,0,0,0,0,0,0,0,0,0,0,0,0,311,311,311,0,0,0,154,154,0,0,0,0,0,0,0,110,111,111,111,111,111,0,0,0,0,111,111,111,111,111,112,0,0,0,0,0,0,0,154,154,0,0,0,0,0,0,0,311,311,0,0,0,0,0,0,0,0,0,311,311,0,0,0,0,154,154,154,154,
154,0,0,0,0,0,0,0,0,0,0,0,0,0,136,136,136,0,0,0,0,0,0,0,0,0,0,0,154,154,0,0,0,0,0,0,0,110,111,111,111,111,111,0,0,0,0,111,111,111,111,111,112,0,0,0,0,0,0,0,154,154,0,0,0,0,0,0,0,314,314,0,0,0,0,311,0,0,0,0,314,314,0,0,0,0,0,0,0,154,
154,0,0,0,0,0,0,0,0,0,0,0,0,0,154,154,154,0,0,0,0,0,0,0,0,0,0,0,154,154,0,0,0,0,0,0,0,110,111,111,111,111,111,92,0,0,92,111,111,111,111,111,112,0,0,0,0,0,0,0,154,154,0,0,0,0,0,0,0,311,311,0,0,0,0,314,0,0,0,0,311,311,0,0,0,0,0,0,314,154,
154,0,0,0,0,0,0,0,0,0,0,0,0,0,154,154,154,0,0,0,0,0,0,0,0,0,0,0,154,154,0,0,0,0,0,0,0,110,111,111,111,111,111,111,0,0,111,111,111,111,111,111,112,0,0,0,0,0,0,0,154,154,0,0,0,0,0,0,0,0,0,0,0,0,0,311,0,0,0,0,0,0,0,0,0,0,0,0,0,154,
154,0,0,0,0,0,0,0,0,0,0,0,0,0,154,154,154,0,0,0,0,0,0,0,0,0,0,0,154,154,0,0,0,0,0,0,0,110,111,111,111,111,111,111,0,0,111,111,111,111,111,111,112,0,0,0,0,0,0,0,154,154,0,0,0,0,0,0,0,0,0,0,0,0,0,0,0,0,0,0,0,0,0,0,0,0,0,0,0,154,
154,0,0,0,0,0,0,0,0,0,0,0,0,0,154,154,154,0,0,0,0,0,0,0,0,0,0,0,154,154,0,0,0,0,0,0,0,0,111,111,111,111,111,111,0,0,111,111,111,111,111,111,0,0,0,0,0,0,0,0,154,154,0,0,0,0,0,0,0,0,0,0,0,0,0,299,0,0,0,0,0,0,0,0,0,0,154,154,154,154,
154,0,0,0,0,0,0,0,0,0,0,0,0,0,0,287,0,0,0,0,0,0,311,311,311,0,0,0,154,154,0,0,0,0,0,0,0,0,0,111,111,111,111,111,0,0,111,111,111,111,111,0,0,0,0,0,0,0,0,0,154,154,0,0,0,0,0,0,0,311,311,0,0,0,0,0,0,0,0,0,311,311,0,0,0,0,0,306,307,154,
154,0,0,0,0,0,0,0,0,0,0,0,0,0,0,0,0,0,0,0,0,0,314,314,314,0,0,0,154,154,0,0,0,0,0,0,0,0,0,0,0,0,0,0,0,0,0,0,0,0,0,0,0,0,0,0,0,0,0,0,154,154,0,0,0,0,0,0,0,0,0,0,0,0,0,0,0,0,0,0,0,0,0,0,0,0,0,0,0,154,
154,0,0,0,0,0,0,0,0,0,0,0,0,0,0,0,0,0,0,0,0,0,311,311,311,0,0,0,154,154,0,0,0,0,0,0,0,0,0,0,311,311,0,0,0,0,0,0,311,311,0,0,0,0,0,0,0,0,0,0,154,154,0,0,0,0,0,0,0,0,0,0,0,0,0,0,0,0,0,0,0,0,0,0,0,0,0,0,0,154,
154,0,0,0,0,0,0,0,0,0,0,0,299,0,0,0,0,0,299,0,0,0,0,0,0,0,0,0,154,154,0,0,311,311,311,0,0,0,0,0,0,0,0,0,0,0,0,0,0,0,0,0,0,0,0,311,311,311,0,0,154,154,0,0,0,0,0,0,0,0,0,0,0,0,0,0,0,0,0,0,0,0,0,0,0,0,0,0,0,154,
154,138,138,138,138,138,138,138,138,138,138,138,138,0,0,0,0,0,138,138,138,138,138,138,138,138,138,138,154,154,0,0,0,0,0,0,0,0,0,0,0,0,0,0,0,0,0,0,0,0,0,0,0,0,0,0,0,0,0,0,154,154,138,138,138,138,138,138,138,138,138,138,138,0,0,0,0,0,138,138,138,138,138,138,138,138,138,138,138,154,
154,154,154,154,154,154,154,154,154,154,154,154,154,0,0,0,0,0,154,154,154,154,154,154,154,154,154,154,154,154,0,0,0,0,0,0,0,0,0,0,0,0,0,0,0,0,0,0,0,0,0,0,0,0,0,0,0,0,0,0,154,154,154,154,154,154,154,154,154,154,154,154,154,0,0,0,0,0,154,154,154,154,154,154,154,154,154,154,154,154,
154,154,154,154,154,154,154,154,154,154,154,154,154,0,0,0,0,0,154,154,154,154,154,154,154,154,154,154,154,154,0,0,0,0,0,0,0,0,0,0,0,0,0,0,0,0,0,0,0,0,0,0,0,0,0,0,0,0,0,0,154,154,154,154,154,154,154,154,154,154,154,154,154,0,0,0,0,0,154,154,154,154,154,154,154,154,154,154,154,154,
154,154,154,154,154,154,154,154,154,154,154,154,154,0,0,0,0,0,154,154,154,154,154,154,154,154,154,154,154,154,0,0,0,0,0,0,0,0,0,0,0,0,0,0,0,0,0,0,0,0,0,0,0,0,0,0,0,0,0,0,154,154,154,154,154,154,154,154,154,154,154,154,154,0,0,0,0,0,154,154,154,154,154,154,154,154,154,154,154,154,
154,154,154,154,154,154,154,154,154,154,154,154,154,0,0,0,0,0,154,154,154,154,154,154,154,154,154,154,154,154,0,0,0,0,0,0,0,0,0,0,0,0,0,0,0,0,0,0,0,0,0,0,0,0,0,0,0,0,0,0,154,154,154,154,154,154,154,154,154,154,154,154,154,0,0,0,0,0,154,154,154,154,154,154,154,154,154,154,154,154,
154,154,53,154,154,154,154,154,154,154,154,154,154,0,0,0,0,0,154,154,154,154,154,154,154,154,154,154,154,154,154,154,0,0,0,154,154,0,0,0,154,154,0,0,0,0,0,0,154,154,0,0,0,154,154,0,0,0,154,154,154,154,154,154,154,154,154,154,154,154,154,154,154,0,0,0,0,0,154,154,154,154,154,154,154,154,154,154,154,154,
154,91,72,93,0,0,0,0,0,0,0,0,281,0,0,0,0,0,281,0,0,0,0,0,0,0,0,0,154,154,154,154,0,0,0,154,154,0,0,0,154,154,0,0,0,0,0,0,154,154,0,0,0,154,154,0,0,0,154,154,154,154,92,92,92,92,92,92,92,92,92,92,92,0,0,0,0,0,92,92,92,92,92,92,92,92,92,92,92,154,
154,110,111,112,0,0,0,0,0,0,0,0,0,0,0,0,0,0,0,0,0,0,0,0,0,0,0,0,154,154,0,0,0,0,0,0,0,0,0,0,0,0,0,0,0,0,0,0,0,0,0,0,0,0,0,0,0,0,0,0,154,154,111,111,111,111,111,111,111,111,111,111,111,0,0,0,0,0,111,111,111,111,111,111,111,111,111,111,111,154,
154,110,111,112,0,0,0,0,0,0,0,0,0,0,0,0,0,0,0,0,0,0,0,0,0,0,0,0,154,154,0,0,0,0,0,0,0,0,0,0,0,0,0,0,0,0,0,0,0,0,0,0,0,0,0,0,0,0,0,0,154,154,0,0,0,0,0,0,0,0,0,0,60,0,0,0,0,0,60,0,0,0,0,0,0,0,0,0,0,154,
154,110,111,112,0,0,0,0,0,0,0,0,0,0,0,0,0,0,0,0,0,0,0,0,0,0,0,0,154,154,0,0,0,0,0,0,0,0,0,0,0,0,0,0,0,0,0,0,0,0,0,0,0,0,0,0,0,0,0,0,154,154,0,0,0,311,311,311,311,0,0,0,0,0,0,0,0,0,0,0,0,0,311,311,311,311,0,0,0,154,
154,110,111,112,0,0,0,0,0,0,0,0,0,0,0,0,0,0,0,0,0,0,0,0,0,0,0,0,154,154,0,0,0,0,0,0,0,0,0,0,0,0,0,0,0,0,0,0,0,0,0,0,0,0,0,0,0,0,0,0,154,154,0,0,0,0,0,0,0,0,0,0,0,0,0,0,0,0,0,0,0,0,0,0,0,0,0,0,0,154,
154,110,111,112,0,0,0,0,0,0,0,0,0,0,0,0,0,0,0,0,0,0,0,0,0,0,0,0,154,154,0,0,0,0,0,0,0,0,0,0,0,0,0,0,0,0,0,0,0,0,0,0,0,0,0,0,0,0,0,0,154,154,0,0,0,0,0,0,0,0,0,0,0,0,0,0,0,0,0,0,0,0,0,0,0,0,0,0,0,154,
154,110,111,112,0,0,300,0,0,0,0,0,0,0,0,0,0,0,0,0,0,0,0,0,0,0,0,0,0,0,0,0,0,0,0,0,0,0,0,0,0,0,0,0,0,0,0,0,0,0,0,0,0,0,0,0,0,0,0,0,154,154,0,0,0,0,0,0,0,0,0,0,0,0,0,0,0,0,0,0,0,0,0,0,0,0,0,0,0,154,
154,110,111,112,0,0,314,0,0,0,0,0,0,0,0,0,0,0,0,0,0,0,0,0,0,0,0,0,0,0,0,0,0,0,0,0,0,0,0,0,0,0,0,0,0,0,0,0,0,0,0,0,0,0,0,0,0,0,0,0,154,154,0,0,0,0,0,0,0,0,0,0,0,0,0,0,0,0,0,0,0,0,0,0,0,0,0,0,0,154,
154,110,111,112,0,0,314,0,0,0,0,0,0,0,0,0,0,0,0,0,0,0,0,0,0,0,0,0,0,0,0,0,0,0,0,0,0,0,0,0,0,0,0,0,0,0,0,0,0,0,0,0,0,0,0,0,0,0,0,0,154,154,0,0,0,0,0,0,0,0,0,0,0,0,0,0,0,0,0,0,0,0,0,0,0,0,0,0,0,154,
154,110,111,112,0,0,314,0,0,0,0,0,0,0,0,0,0,0,0,0,0,0,0,0,0,0,0,0,0,0,0,0,0,0,0,0,0,0,0,0,0,0,0,0,0,0,0,0,0,0,0,0,0,0,0,0,0,0,0,0,154,154,0,0,0,0,0,0,0,0,0,0,0,0,0,0,0,0,0,0,0,0,0,0,0,0,0,0,0,154,
154,110,111,112,0,0,300,0,0,0,0,0,0,0,0,0,0,0,0,0,0,0,0,0,0,0,0,0,154,154,0,0,0,0,0,0,0,0,0,0,0,0,0,0,0,0,0,0,0,0,0,0,0,0,0,0,0,0,0,0,154,154,0,0,0,0,0,0,0,0,0,0,0,0,0,0,0,0,0,0,0,154,154,154,326,327,327,154,154,154,
154,110,111,112,0,0,0,0,0,0,0,0,0,0,0,0,0,0,0,0,0,0,0,0,0,0,0,0,154,154,0,0,0,0,0,0,0,0,0,0,0,0,0,0,0,0,0,0,0,0,0,0,0,0,0,0,0,0,0,0,154,154,0,0,0,0,0,0,0,0,0,0,0,0,0,0,0,0,0,0,0,154,154,154,154,154,154,154,154,154,
154,110,111,112,0,0,0,0,0,0,0,0,0,0,0,0,0,0,0,0,0,0,0,0,0,0,0,0,154,154,0,0,0,0,0,0,0,0,0,0,0,0,0,0,0,0,0,0,0,0,0,0,0,0,0,0,0,0,0,0,154,154,0,0,311,311,311,0,0,0,0,0,0,0,0,0,0,0,0,0,0,154,0,0,0,0,0,0,0,154,
154,110,111,112,0,0,0,0,0,0,0,0,0,0,0,0,0,0,0,0,0,0,0,0,0,0,0,0,154,154,0,0,0,0,0,0,0,0,0,0,0,0,0,0,0,0,0,0,0,0,0,0,0,0,0,0,0,0,0,0,154,154,0,0,314,314,314,0,0,0,0,0,0,0,0,0,0,0,0,0,0,0,0,0,0,0,0,0,0,154,
154,110,111,112,0,0,0,0,0,0,0,0,0,0,0,0,0,0,0,0,0,0,0,0,0,0,0,0,154,154,0,0,0,0,0,0,0,0,0,0,0,0,0,0,0,0,0,0,0,0,0,0,0,0,0,0,0,0,0,0,154,154,0,0,314,314,314,0,0,0,0,0,0,0,0,0,0,0,0,0,0,0,0,0,0,0,0,0,0,154,
154,110,111,112,0,0,0,0,0,0,0,0,0,0,3221225762,3221225762,3221225762,0,0,0,0,0,0,0,0,0,0,0,154,154,0,0,0,0,0,0,0,0,0,0,0,0,0,0,0,0,0,0,0,0,0,0,0,0,0,0,0,0,0,0,154,154,0,0,311,311,311,0,0,0,0,0,0,0,0,0,0,0,0,0,0,0,0,0,0,0,0,0,0,154,
154,110,111,112,0,0,0,0,0,0,0,0,0,0,0,0,0,0,0,0,0,0,0,0,0,0,0,0,154,154,0,0,0,0,0,0,0,0,0,0,0,0,0,0,0,0,0,0,0,0,0,0,0,0,0,0,0,0,0,0,154,154,0,0,0,0,0,0,0,0,0,299,0,0,0,0,0,0,299,0,0,154,0,0,0,0,0,0,0,154,
154,154,154,154,154,154,154,154,154,154,154,154,154,154,154,154,154,154,154,154,154,154,154,154,154,154,154,154,154,154,154,154,154,154,154,154,154,154,154,154,154,154,154,154,154,154,154,154,154,154,154,154,154,154,154,154,154,154,154,154,154,154,154,154,154,154,154,154,154,154,154,154,154,154,154,154,154,154,154,154,154,154,154,154,154,154,154,154,154,154
</data>
 </layer>
 <layer id="6" name="walls2" width="90" height="60">
  <data encoding="csv">
0,0,0,0,0,0,0,0,0,0,0,0,0,0,0,0,0,0,0,0,0,0,0,0,0,0,0,0,0,0,0,0,0,0,0,0,0,0,0,0,0,0,0,0,0,0,0,0,0,0,0,0,0,0,0,0,0,0,0,0,0,0,0,0,0,0,0,0,0,0,0,0,0,0,0,0,0,0,0,0,0,0,0,0,0,0,0,0,0,0,
0,0,0,0,0,0,0,0,0,0,0,0,0,0,0,0,0,0,0,0,0,0,0,0,0,0,0,0,0,0,0,0,0,0,0,0,0,0,0,0,0,0,0,0,0,0,0,0,0,0,0,0,0,0,0,0,0,0,0,0,0,0,0,0,0,0,0,0,0,0,0,0,0,0,0,0,0,0,0,0,0,0,0,0,0,0,0,0,0,0,
0,0,0,0,0,0,0,0,0,0,0,0,0,0,0,0,0,0,0,0,0,0,0,0,0,0,0,0,0,0,0,0,0,0,0,0,0,0,0,0,0,0,0,0,0,0,0,0,0,0,0,0,0,0,0,0,0,0,0,0,0,0,0,0,0,0,0,0,0,0,0,0,0,0,0,0,0,0,0,291,292,293,0,0,0,0,0,0,0,0,
0,0,0,0,0,0,0,0,0,0,0,0,0,0,0,0,0,0,0,0,0,0,0,0,0,0,0,0,0,0,0,0,0,0,0,0,0,0,0,0,0,0,0,0,0,0,0,0,0,0,0,0,0,0,0,0,0,0,0,0,0,0,0,0,0,0,0,0,0,0,0,0,0,0,0,0,0,0,0,0,0,0,0,0,0,0,0,0,0,0,
0,1610613026,0,0,0,0,0,0,0,0,0,0,0,0,0,0,0,0,0,0,0,0,0,0,0,0,0,0,0,0,0,0,0,0,0,0,0,0,0,0,0,0,0,0,0,0,0,0,0,0,0,0,0,0,0,0,0,0,0,0,0,0,0,0,0,0,0,0,0,0,0,0,0,0,0,0,0,0,0,0,0,0,0,0,0,0,0,0,0,0,
0,154,154,154,154,154,154,0,0,0,0,0,0,0,0,0,0,0,0,154,0,0,0,0,0,154,0,0,0,0,0,0,0,0,0,0,0,0,0,0,0,0,0,0,0,0,0,0,0,0,0,0,0,0,0,0,0,0,0,0,0,0,0,0,0,0,0,0,0,0,0,0,0,0,0,0,0,0,0,0,0,0,0,0,0,0,0,0,0,0,
0,154,356,357,358,154,154,0,0,0,0,0,154,136,136,154,0,0,0,0,0,0,0,0,0,0,0,0,0,0,0,0,0,0,0,0,0,0,0,0,0,0,0,0,0,0,0,0,0,0,0,0,0,0,0,0,0,0,0,0,0,0,0,0,0,0,0,0,0,0,0,0,0,0,0,0,0,0,0,0,0,0,0,0,0,0,0,0,0,0,
0,0,377,378,379,0,0,0,0,0,0,0,0,0,0,0,0,0,0,0,0,0,0,0,0,0,0,0,0,0,0,0,0,0,0,0,0,0,0,0,0,0,0,0,0,0,0,0,0,0,0,0,0,0,0,0,0,0,0,0,0,0,0,0,0,0,0,0,0,0,0,0,0,0,0,0,0,0,0,0,0,0,0,0,0,0,0,0,0,0,
0,297,298,0,0,0,0,0,0,0,0,0,0,0,0,0,0,0,0,0,0,0,0,0,0,0,0,0,0,0,0,0,0,0,0,0,0,0,0,0,0,0,0,0,0,0,0,0,0,0,0,0,0,0,0,0,0,0,0,0,0,0,0,0,0,0,0,0,0,0,0,0,0,0,0,0,0,0,0,0,0,0,0,0,0,0,0,0,0,0,
0,0,0,0,0,0,0,0,0,0,0,0,0,0,0,0,0,0,0,0,0,0,0,0,0,0,0,0,0,0,0,0,0,0,0,0,0,0,0,0,0,0,0,0,0,0,0,0,0,0,0,0,0,0,0,0,0,0,0,0,0,0,0,0,0,0,0,0,0,0,0,0,0,0,0,0,0,0,0,0,0,0,0,0,0,0,0,0,0,0,
0,0,0,0,0,0,0,0,0,0,0,0,0,0,0,0,154,0,0,0,0,0,0,0,0,0,0,0,0,0,0,0,0,0,0,0,269,0,0,0,0,0,0,0,0,0,0,0,0,0,0,0,0,269,0,0,0,0,0,0,0,0,0,0,0,0,0,0,0,0,0,154,154,154,380,381,381,381,381,381,381,382,154,154,0,0,0,0,0,0,
0,0,0,0,0,0,154,0,0,0,0,0,0,0,0,0,0,0,0,0,0,0,154,0,0,0,0,0,0,0,0,0,0,0,0,0,270,0,0,0,0,0,0,0,0,0,0,0,0,0,0,0,0,270,0,0,0,0,0,0,0,0,0,0,0,0,0,0,0,0,0,154,154,154,154,154,154,154,154,154,154,154,154,154,0,0,0,0,0,0,
0,0,0,0,0,0,0,0,0,0,0,0,0,0,0,0,0,0,0,0,0,0,0,0,0,0,0,0,0,0,0,0,0,0,0,0,0,0,0,0,0,0,0,0,0,0,0,0,0,0,0,0,0,0,0,0,0,0,0,0,0,0,0,0,0,0,0,0,0,0,0,0,0,0,0,0,0,0,0,0,0,0,0,0,0,0,0,0,0,0,
0,0,0,0,0,0,0,0,0,0,0,0,0,0,0,0,0,0,0,0,0,0,0,0,0,0,0,0,154,154,0,0,0,0,0,0,0,0,0,0,0,0,0,0,0,0,0,0,0,0,0,0,0,0,0,0,0,0,0,0,0,0,0,0,0,0,0,0,0,0,0,0,0,0,0,297,298,0,0,0,0,0,0,0,0,0,0,0,0,0,
0,0,0,0,0,0,0,0,0,0,0,0,0,0,0,0,0,0,0,0,0,0,0,0,0,0,0,0,154,154,0,0,0,0,0,0,0,0,0,0,0,0,0,0,0,0,0,0,0,0,0,0,0,0,0,0,0,0,0,0,0,0,0,0,0,0,0,0,0,0,0,0,0,0,0,0,0,0,0,0,0,0,0,0,0,0,0,0,0,0,
0,0,0,0,0,0,0,0,0,0,0,0,0,0,0,0,0,0,0,0,0,0,0,0,0,0,0,0,0,0,0,0,0,0,0,0,0,0,0,0,0,0,0,0,0,0,0,0,0,0,0,0,0,0,0,0,0,0,0,0,0,0,0,0,0,0,0,0,0,0,0,0,0,0,0,0,0,0,0,0,0,0,0,0,0,0,0,0,0,0,
0,0,0,0,0,0,0,0,0,0,0,0,0,0,0,0,0,0,0,0,0,0,0,0,0,0,0,0,0,0,0,0,0,0,0,0,0,0,0,0,0,0,0,0,0,0,0,0,0,0,0,0,0,0,0,0,0,0,0,0,0,0,0,0,0,0,0,0,0,0,0,0,0,0,0,0,0,0,0,0,0,0,0,0,0,0,0,0,0,0,
0,0,0,0,0,0,0,0,0,0,0,0,0,0,0,0,0,154,154,0,0,0,0,0,0,0,0,0,0,0,0,0,0,0,0,0,0,0,0,0,0,0,0,0,0,0,0,0,0,0,0,0,0,0,0,0,0,0,0,0,0,0,0,0,0,0,0,0,0,0,0,0,0,0,0,0,0,0,0,0,0,0,0,0,0,0,0,0,0,0,
0,0,0,0,0,0,0,0,0,0,0,0,0,0,0,0,0,0,0,0,0,0,0,0,0,0,0,0,0,0,0,0,0,0,0,0,0,0,0,0,0,0,0,0,0,0,0,0,0,0,0,0,0,0,0,0,0,0,0,0,0,0,0,0,0,0,0,0,0,0,0,0,0,0,0,0,0,0,0,0,0,0,0,0,0,0,0,0,0,0,
0,154,154,154,154,154,154,154,154,154,154,154,154,0,0,0,0,0,154,154,154,154,154,154,154,154,154,154,0,0,0,0,0,0,0,0,0,0,0,0,0,0,0,0,0,0,0,0,0,0,0,0,0,0,0,0,0,0,0,0,0,0,154,154,154,154,154,154,154,154,154,154,154,0,0,0,0,0,154,154,154,154,154,154,154,154,154,154,154,0,
0,154,154,154,154,154,154,154,154,154,154,154,154,0,0,0,0,0,154,154,154,154,154,154,154,154,154,154,0,0,0,0,0,0,0,0,0,0,0,0,0,0,0,0,0,0,0,0,0,0,0,0,0,0,0,0,0,0,0,0,0,0,154,154,154,154,154,154,154,154,154,154,154,0,0,0,0,0,154,154,154,154,154,154,154,154,154,154,154,0,
0,0,0,0,0,0,0,0,0,0,0,0,0,0,0,0,0,0,0,0,0,0,0,0,0,0,0,0,0,0,0,0,0,0,0,0,0,0,0,0,0,0,0,0,0,0,0,0,0,0,0,0,0,0,0,0,0,0,0,0,0,0,0,0,265,266,265,266,0,268,0,0,0,0,0,0,0,0,0,0,265,266,265,266,0,267,268,0,0,0,
0,0,0,0,0,0,0,0,0,0,0,0,0,0,0,0,0,0,0,0,0,0,0,0,0,0,0,0,0,0,0,0,0,0,0,259,0,0,0,0,0,0,0,0,0,0,0,0,0,0,0,0,0,0,259,0,0,0,0,0,0,0,0,0,0,0,0,0,0,0,0,0,0,0,0,0,0,0,0,0,0,0,0,0,0,0,0,0,0,0,
0,0,0,0,0,0,0,0,0,0,0,0,0,0,0,0,0,0,0,0,0,0,0,0,0,0,0,0,0,0,0,0,0,0,0,271,0,0,0,0,0,0,0,0,0,0,0,0,0,0,0,0,0,0,271,0,0,0,0,0,0,0,0,0,0,0,0,0,0,0,0,0,0,0,0,0,0,0,0,0,0,0,0,0,0,0,0,0,0,0,
0,0,0,0,0,0,0,0,0,0,0,0,0,0,0,0,0,0,0,0,0,0,0,0,0,0,0,0,0,0,0,0,0,0,0,0,0,0,0,0,0,0,0,0,0,0,0,0,0,0,0,0,0,0,0,0,0,0,0,0,0,0,0,0,0,0,0,0,0,0,0,0,0,0,0,0,0,0,0,0,0,0,0,0,0,0,154,154,154,0,
0,0,0,0,0,0,0,0,0,0,0,0,0,0,154,154,154,0,0,0,0,0,0,0,0,0,0,0,0,0,0,0,0,0,0,0,0,0,0,0,0,0,0,0,0,0,0,0,0,0,0,0,0,0,0,0,0,0,0,0,0,0,0,0,0,0,0,0,0,0,0,0,0,0,0,0,0,0,0,0,0,0,0,0,0,0,154,154,154,0,
0,0,0,0,0,0,0,0,0,0,0,0,0,0,154,154,154,0,0,0,0,0,0,0,0,0,0,0,0,0,0,0,0,0,0,0,0,0,0,0,0,0,0,0,0,0,0,0,0,0,0,0,0,0,0,0,0,0,0,0,0,0,0,0,0,0,0,0,0,0,0,0,0,0,0,0,0,0,0,0,0,0,0,0,0,0,0,0,0,0,
0,0,0,0,0,0,0,0,0,0,0,0,0,0,0,0,0,0,0,0,0,0,0,0,0,0,0,0,0,0,0,0,0,0,0,0,0,0,0,0,0,0,0,0,0,0,0,0,0,0,0,0,0,0,0,0,0,0,0,0,0,0,0,0,0,0,0,0,0,0,0,0,0,0,0,0,0,0,0,0,0,0,0,0,0,0,0,0,0,0,
0,0,0,0,0,0,0,0,0,0,0,0,0,0,0,0,0,0,0,0,0,0,0,0,0,0,0,0,0,0,0,0,0,0,0,0,0,0,0,0,0,0,0,0,0,0,0,0,0,0,0,0,0,0,0,0,0,0,0,0,0,0,0,0,0,0,0,0,0,0,0,0,0,0,0,0,0,0,0,0,0,0,0,0,0,0,0,0,2684354850,0,
0,0,0,0,0,0,0,0,0,0,0,0,0,0,0,0,0,0,0,0,0,0,0,0,0,0,0,0,0,0,0,0,0,0,0,0,0,0,0,0,0,0,0,0,0,0,0,0,0,0,0,0,0,0,0,0,0,0,0,0,0,0,0,0,0,0,0,0,0,0,0,0,0,0,0,0,0,0,0,0,0,0,0,0,0,0,154,154,154,0,
0,0,0,0,0,0,0,0,0,0,0,0,0,0,0,0,0,0,0,0,0,0,0,0,0,0,0,0,0,0,0,0,0,0,0,0,0,0,0,0,0,0,0,0,0,0,0,0,0,0,0,0,0,0,0,0,0,0,0,0,0,0,0,0,0,0,0,0,0,0,0,0,0,0,0,0,0,0,0,0,0,0,0,0,0,0,154,154,154,0,
0,0,0,0,0,0,0,0,0,0,0,0,0,0,0,0,0,0,0,0,0,0,0,0,0,0,0,0,0,0,0,0,0,0,0,0,0,0,0,0,0,0,0,0,0,0,0,0,0,0,0,0,0,0,0,0,0,0,0,0,0,0,0,0,0,0,0,0,0,0,0,0,0,0,0,0,0,0,0,0,0,0,0,0,0,0,0,294,295,0,
0,0,0,0,0,0,0,0,0,0,0,0,0,0,0,0,0,0,0,0,0,0,0,0,0,0,0,0,0,0,0,0,0,0,0,0,0,0,0,0,0,0,0,0,0,0,0,0,0,0,0,0,0,0,0,0,0,0,0,0,0,0,0,0,0,0,0,0,0,0,0,0,0,0,0,0,0,0,0,0,0,0,0,0,0,0,0,0,0,0,
0,0,0,0,0,0,0,0,0,0,0,0,0,0,0,0,0,0,0,0,0,0,0,0,0,0,0,0,0,0,0,0,0,0,0,0,0,0,0,0,0,0,0,0,0,0,0,0,0,0,0,0,0,0,0,0,0,0,0,0,0,0,0,0,0,0,0,0,0,0,0,0,0,0,0,0,0,0,0,0,0,0,0,0,0,0,0,0,0,0,
0,0,0,0,0,0,0,0,0,0,0,0,0,0,0,0,0,0,0,0,0,0,0,0,0,0,0,0,0,0,0,0,0,0,0,0,0,0,0,0,0,0,0,0,0,0,0,0,0,0,0,0,0,0,0,0,0,0,0,0,0,0,0,0,0,0,0,0,0,0,0,0,0,0,0,0,0,0,0,0,0,0,0,0,0,0,0,0,0,0,
0,0,0,0,0,0,0,0,0,0,0,0,0,0,0,0,0,0,0,0,0,0,0,0,0,0,0,0,0,0,0,0,0,0,0,0,0,0,0,0,0,0,0,0,0,0,0,0,0,0,0,0,0,0,0,0,0,0,0,0,0,0,0,0,0,0,0,0,0,0,0,0,0,0,0,0,0,0,0,0,0,0,0,0,0,0,0,0,0,0,
0,0,0,0,0,0,0,0,0,0,0,0,0,0,0,0,0,0,0,0,0,0,0,0,0,0,0,0,0,0,0,0,0,0,0,0,0,0,0,0,0,0,0,0,0,0,0,0,0,0,0,0,0,0,0,0,0,0,0,0,0,0,0,0,0,0,0,0,0,0,0,0,0,0,0,0,0,0,0,0,0,0,0,0,0,0,0,0,0,0,
0,0,0,0,0,0,0,0,0,0,0,0,0,0,0,0,0,0,0,0,0,0,0,0,0,0,0,0,0,0,0,0,0,0,0,0,0,0,0,0,0,0,0,0,0,0,0,0,0,0,0,0,0,0,0,0,0,0,0,0,0,0,0,0,0,0,0,0,0,0,0,0,0,0,0,0,0,0,0,0,0,0,0,0,0,0,0,0,0,0,
0,0,0,0,0,0,0,0,0,0,0,0,0,0,0,0,0,0,0,0,0,0,0,0,0,0,0,0,0,0,0,0,0,0,0,0,0,0,0,0,0,0,0,0,0,0,0,0,0,0,0,0,0,0,0,0,0,0,0,0,0,0,0,0,0,0,0,0,0,0,0,0,0,0,0,0,0,0,0,0,0,0,0,0,0,0,0,0,0,0,
0,0,0,0,0,0,0,0,0,0,0,0,0,0,0,0,0,0,0,0,0,0,0,0,0,0,0,0,0,0,154,154,0,0,0,154,154,0,0,0,154,154,0,0,0,0,0,0,154,154,0,0,0,154,154,0,0,0,154,154,0,0,0,0,0,0,0,0,0,0,0,0,0,0,0,0,0,0,0,0,0,0,0,0,0,0,0,0,0,0,
0,0,0,0,0,0,0,0,0,0,0,0,0,0,0,0,0,0,0,0,0,0,0,0,0,0,0,0,0,0,154,154,0,0,0,154,154,0,0,0,154,154,0,0,0,0,0,0,154,154,0,0,0,154,154,0,0,0,154,154,0,0,0,0,0,0,0,0,0,0,0,0,0,0,0,0,0,0,0,0,0,0,0,0,0,0,0,0,0,0,
0,0,0,0,0,0,0,0,0,0,0,0,0,0,0,0,0,0,0,0,0,0,0,0,0,0,0,0,0,0,0,0,0,0,0,0,0,0,0,0,0,0,0,0,0,0,0,0,0,0,0,0,0,0,0,0,0,0,0,0,0,0,0,0,0,0,0,0,0,0,0,0,0,0,0,0,0,0,0,0,0,0,0,0,0,0,0,0,0,0,
0,0,0,0,0,0,0,0,0,0,0,0,0,0,0,0,0,0,0,0,0,0,0,0,0,0,0,0,0,0,0,0,0,0,0,0,0,0,0,0,0,0,0,0,0,0,0,0,0,0,0,0,0,0,0,0,0,0,0,0,0,0,0,0,0,0,0,0,0,0,0,0,0,0,0,0,0,0,0,0,0,0,0,0,0,0,0,0,0,0,
0,0,0,0,0,0,0,0,0,0,0,0,0,0,0,0,0,0,0,0,0,0,0,0,0,0,0,0,0,0,0,0,0,0,0,0,0,0,0,0,0,0,0,0,0,0,0,0,0,0,0,0,0,0,0,0,0,0,0,0,0,0,0,0,0,0,0,0,0,0,0,0,0,0,0,0,0,0,0,0,0,0,0,0,0,0,0,0,0,0,
0,0,0,0,0,0,0,0,0,0,0,0,0,0,0,0,0,0,0,0,0,0,0,0,0,0,0,0,0,0,0,0,0,0,0,0,0,0,0,0,0,0,0,0,0,0,0,0,0,0,0,0,0,0,0,0,0,0,0,0,0,0,0,0,0,0,0,0,0,0,0,0,0,0,0,0,0,0,0,0,0,0,0,0,0,0,0,0,0,0,
0,0,0,0,0,0,0,0,0,0,0,0,0,0,0,0,0,0,0,0,0,0,0,0,0,0,0,0,0,0,0,0,0,0,0,0,0,0,0,0,0,0,0,0,0,0,0,0,0,0,0,0,0,0,0,0,0,0,0,0,0,0,0,0,0,0,0,0,0,0,0,0,0,0,0,0,0,0,0,0,0,0,0,0,0,0,0,0,0,0,
0,0,0,0,0,0,0,0,0,0,0,0,0,0,0,0,0,0,0,0,0,0,0,0,0,0,0,0,0,0,0,0,0,0,0,0,0,0,0,0,0,0,0,0,0,0,0,0,0,0,0,0,0,0,0,0,0,0,0,0,0,0,0,0,0,0,0,0,0,0,0,0,0,0,0,0,0,0,0,0,0,0,0,0,0,0,0,0,0,0,
0,0,0,0,0,0,0,0,0,0,0,0,0,0,0,0,0,0,0,0,0,0,0,0,0,0,0,0,0,0,0,0,0,0,0,0,0,0,0,0,0,0,0,0,0,0,0,0,0,0,0,0,0,0,0,0,0,0,0,0,0,0,0,0,0,0,0,0,0,0,0,0,0,0,0,0,0,0,0,0,0,0,0,0,0,0,0,0,0,0,
0,0,0,0,0,0,0,0,0,0,0,0,0,0,0,0,0,0,0,0,0,0,0,0,0,0,0,0,0,0,0,0,0,0,0,0,0,0,0,0,0,0,0,0,0,0,0,0,0,0,0,0,0,0,0,0,0,0,0,0,0,0,0,0,0,0,0,0,0,0,0,0,0,0,0,0,0,0,0,0,0,0,0,0,0,0,0,0,0,0,
0,0,0,0,0,0,0,0,0,0,0,0,0,0,0,0,0,0,0,0,0,0,0,0,0,0,0,0,0,0,0,0,0,0,0,0,0,0,0,0,0,0,0,0,0,0,0,0,0,0,0,0,0,0,0,0,0,0,0,0,0,0,0,0,0,0,0,0,0,0,0,0,0,0,0,0,0,0,0,0,0,0,0,0,0,0,0,0,0,0,
0,0,0,0,0,0,0,0,0,0,0,0,0,0,0,0,0,0,0,0,0,0,0,0,0,0,0,0,0,0,0,0,0,0,0,0,0,0,0,0,0,0,0,0,0,0,0,0,0,0,0,0,0,0,0,0,0,0,0,0,0,0,0,0,0,0,0,0,0,0,0,0,0,0,0,0,0,0,0,0,0,154,154,154,154,154,154,154,154,0,
0,0,0,0,0,0,0,0,0,0,0,0,0,0,0,0,0,0,0,0,0,0,0,0,0,0,0,0,0,0,0,0,0,0,0,0,0,0,0,0,0,0,0,0,0,0,0,0,0,0,0,0,0,0,0,0,0,0,0,0,0,0,0,0,0,0,0,0,0,0,0,0,0,0,0,0,0,0,0,0,0,154,154,154,135,154,154,154,154,0,
0,0,0,0,0,0,0,0,0,0,0,0,0,0,0,0,0,0,0,0,0,0,0,0,0,0,0,0,0,0,0,0,0,0,0,0,0,0,0,0,0,0,0,0,0,0,0,0,0,0,0,0,0,0,0,0,0,0,0,0,0,0,0,0,0,0,0,0,0,0,0,0,0,0,0,0,0,0,0,0,0,0,0,0,0,0,0,0,0,0,
0,0,0,0,0,0,0,0,0,0,0,0,0,0,0,0,0,0,0,0,0,0,0,0,0,0,0,0,0,0,0,0,0,0,0,0,0,0,0,0,0,0,0,0,0,0,0,0,0,0,0,0,0,0,0,0,0,0,0,0,0,0,0,0,0,0,0,0,0,0,0,0,0,0,0,0,0,0,0,0,0,0,0,0,0,0,0,0,0,0,
0,0,0,0,0,0,0,0,0,0,0,0,0,0,0,0,0,0,0,0,0,0,0,0,0,0,0,0,0,0,0,0,0,0,0,0,0,0,0,0,0,0,0,0,0,0,0,0,0,0,0,0,0,0,0,0,0,0,0,0,0,0,0,0,0,0,0,0,0,0,0,0,0,0,0,0,0,0,0,0,0,0,0,0,0,0,0,0,0,0,
0,0,0,0,0,0,0,0,0,0,0,0,0,0,0,0,0,0,0,0,0,0,0,0,0,0,0,0,0,0,0,0,0,0,0,0,0,0,0,0,0,0,0,0,0,0,0,0,0,0,0,0,0,0,0,0,0,0,0,0,0,0,0,0,0,0,0,0,0,0,0,0,0,0,0,0,0,0,0,0,0,0,0,0,0,0,0,0,0,0,
0,0,0,0,0,0,0,0,0,0,0,0,0,0,0,0,0,0,0,0,0,0,0,0,0,0,0,0,0,0,0,0,0,0,0,0,0,0,0,0,0,0,0,0,0,0,0,0,0,0,0,0,0,0,0,0,0,0,0,0,0,0,0,0,0,0,0,0,0,0,0,0,0,0,0,0,0,0,0,0,0,0,0,0,0,0,0,0,0,0,
0,0,0,0,0,0,0,0,0,0,0,0,0,0,0,0,0,0,0,0,0,0,0,0,0,0,0,0,0,0,0,0,0,0,0,0,0,0,0,0,0,0,0,0,0,0,0,0,0,0,0,0,0,0,0,0,0,0,0,0,0,0,0,0,0,0,0,0,0,0,0,0,0,0,0,0,0,0,0,0,0,154,0,0,0,0,0,0,0,0,
0,0,0,0,0,0,0,0,0,0,0,0,0,0,0,0,0,0,0,0,0,0,0,0,0,0,0,0,0,0,0,0,0,0,0,0,0,0,0,0,0,0,0,0,0,0,0,0,0,0,0,0,0,0,0,0,0,0,0,0,0,0,0,0,0,0,0,0,0,0,0,0,0,0,0,0,0,0,0,0,0,0,0,0,0,0,0,0,0,0,
0,0,0,0,0,0,0,0,0,0,0,0,0,0,0,0,0,0,0,0,0,0,0,0,0,0,0,0,0,0,0,0,0,0,0,0,0,0,0,0,0,0,0,0,0,0,0,0,0,0,0,0,0,0,0,0,0,0,0,0,0,0,0,0,0,0,0,0,0,0,0,0,0,0,0,0,0,0,0,0,0,0,0,0,0,0,0,0,0,0
</data>
 </layer>
 <layer id="5" name="decorations" width="90" height="60">
  <data encoding="csv">
0,136,0,0,0,0,0,0,136,0,136,0,0,0,0,0,0,136,329,330,331,136,0,136,0,136,136,136,0,0,136,136,136,386,387,388,0,347,348,349,0,386,387,387,387,387,387,387,388,0,347,348,349,0,386,387,388,136,136,136,0,0,136,136,386,387,388,386,387,388,386,387,388,386,387,388,386,387,388,386,387,388,386,387,388,136,136,146,147,148,
0,0,347,348,349,347,348,349,0,0,0,347,348,348,349,0,0,0,347,348,349,0,0,0,347,348,349,0,0,0,0,0,0,407,408,409,0,368,369,370,0,407,408,408,408,408,408,408,409,0,368,369,370,0,407,408,409,0,0,0,0,0,0,0,407,408,409,407,408,409,407,408,409,407,408,409,407,408,409,407,408,409,407,408,409,0,0,165,166,167,
0,173,368,369,370,368,369,370,0,0,173,368,369,369,370,0,0,173,368,369,370,0,0,173,368,369,370,173,0,0,173,173,173,300,300,300,0,0,173,173,173,173,0,173,0,0,0,0,173,173,173,173,173,0,300,300,300,0,173,173,0,0,173,173,300,300,300,0,173,173,173,173,0,300,300,300,0,173,173,0,0,0,300,300,300,0,0,184,185,186,
0,0,0,0,0,0,0,288,289,0,0,0,0,0,0,0,0,0,0,0,288,289,0,0,0,0,0,0,0,0,0,0,0,0,0,0,0,0,0,0,0,0,0,0,0,0,0,0,0,0,0,0,0,0,0,0,0,0,0,0,0,0,0,0,0,0,0,0,0,0,0,0,0,0,0,0,0,0,0,0,0,0,0,0,0,0,0,203,204,205,
0,0,0,0,0,0,0,0,0,0,0,0,0,0,0,0,0,0,0,0,0,0,0,0,0,0,0,0,136,136,0,0,0,0,0,0,0,0,0,0,0,0,0,0,0,0,0,0,0,0,0,0,0,0,0,0,0,0,0,0,136,136,0,0,0,0,0,0,0,0,0,0,0,0,0,0,0,0,0,0,0,0,0,0,0,0,0,222,223,224,
0,136,136,136,136,136,136,0,0,0,0,0,0,0,0,0,0,0,0,0,0,0,0,0,0,0,0,0,0,0,0,0,0,0,0,0,0,0,0,0,0,0,0,0,0,0,0,0,0,0,0,0,0,0,0,0,0,0,0,0,0,0,0,0,0,0,0,0,0,0,0,0,0,0,0,0,0,0,0,0,0,0,0,0,0,0,0,0,0,0,
0,0,0,0,0,0,0,0,0,0,0,0,0,0,0,0,0,0,0,0,0,0,0,0,0,0,0,0,0,0,0,0,0,0,0,0,0,0,0,0,0,0,0,0,0,0,0,0,0,0,0,0,0,0,0,0,0,0,0,0,0,0,0,0,0,0,0,0,0,0,0,0,0,0,0,0,0,0,0,0,0,0,0,0,0,0,0,0,0,0,
0,0,0,0,0,0,0,0,0,0,0,0,0,0,0,0,0,0,0,0,0,0,0,0,0,0,0,0,173,173,0,0,0,0,0,0,0,0,0,0,0,0,0,0,0,0,0,0,0,0,0,0,0,0,0,0,0,0,0,0,173,173,0,0,0,0,0,0,0,0,0,0,0,0,0,0,0,0,0,0,0,0,0,0,0,0,0,0,0,0,
0,0,0,0,173,173,173,0,0,0,0,0,0,0,289,0,0,0,0,0,0,0,173,0,0,0,0,0,0,0,0,0,0,0,0,0,0,0,0,0,0,0,0,0,0,0,0,0,0,0,0,0,0,0,0,0,0,0,0,0,0,0,0,0,0,0,0,0,0,0,0,0,0,0,0,0,0,0,0,0,0,0,0,0,0,0,0,0,0,0,
0,0,0,0,0,0,0,0,0,0,0,0,0,0,0,0,0,0,0,0,0,0,0,0,0,0,0,0,0,0,0,0,0,0,0,0,0,0,0,0,0,0,0,0,0,0,0,0,0,0,0,0,0,0,0,0,0,0,0,0,0,0,0,0,0,0,0,0,0,0,0,0,0,0,0,0,0,0,0,0,0,0,0,0,0,0,0,0,0,0,
0,0,0,0,0,0,0,0,0,0,0,0,0,0,0,0,0,0,0,0,0,0,0,0,0,0,0,0,0,0,0,0,0,0,0,0,0,0,0,0,0,0,0,0,0,0,0,0,0,0,0,0,0,0,0,0,0,0,0,0,0,0,0,0,0,0,0,0,0,0,0,0,0,136,0,0,0,0,0,0,0,0,136,136,0,0,0,0,0,0,
0,0,0,0,0,0,0,0,0,0,0,0,0,0,0,0,0,0,0,0,0,0,0,0,0,0,0,0,0,0,0,0,0,0,0,0,0,0,0,0,0,0,0,0,0,0,0,0,0,0,0,0,0,0,0,0,0,0,0,0,0,0,0,0,0,0,0,0,0,0,0,0,0,0,0,0,326,327,328,0,0,0,0,0,0,0,0,0,0,0,
0,0,0,0,0,0,0,0,0,0,0,0,0,0,0,0,0,0,0,0,0,0,0,0,0,0,0,0,0,0,0,0,299,0,0,0,0,0,0,0,0,0,0,0,0,0,0,0,0,0,0,0,0,0,0,0,0,299,0,0,0,0,0,0,0,0,0,0,0,0,0,0,0,0,0,0,0,0,0,0,0,262,263,0,0,0,0,0,0,0,
0,0,0,0,0,0,0,0,0,0,0,0,0,0,0,0,0,0,0,0,0,0,0,0,0,0,0,0,0,0,98,98,98,98,98,98,98,98,98,98,98,98,98,98,98,98,98,98,98,98,98,98,98,98,98,98,98,98,98,98,0,0,0,0,0,0,0,0,0,0,0,0,0,174,174,0,0,0,174,174,174,274,275,174,0,0,0,0,0,0,
0,149,150,151,0,0,0,0,0,0,0,0,0,0,0,0,0,0,0,0,0,0,0,0,0,0,0,0,0,0,0,0,0,0,0,0,0,0,0,0,55,0,0,55,0,0,55,0,0,55,0,0,0,0,0,0,0,0,0,0,0,0,0,0,0,0,0,0,0,0,0,0,0,0,0,0,0,0,0,0,0,0,0,0,0,0,0,0,0,0,
0,168,169,170,0,0,0,0,0,173,0,0,173,0,0,0,0,0,0,0,0,0,173,0,0,173,0,0,0,0,0,0,0,0,0,0,0,0,0,0,0,0,0,0,0,0,0,0,0,0,0,0,0,0,0,0,0,0,0,0,0,0,0,0,0,0,0,0,0,0,0,0,0,0,0,0,0,0,0,0,0,0,0,0,0,0,0,0,0,0,
0,187,188,189,0,0,0,0,0,0,0,0,0,0,0,0,0,0,0,0,0,0,0,0,0,0,0,0,0,0,0,0,0,0,0,0,0,0,0,0,0,0,0,0,0,0,0,0,0,0,0,0,0,0,0,0,0,0,0,0,0,0,0,0,0,0,285,0,0,0,0,0,0,0,0,0,0,0,0,0,0,0,0,0,0,0,0,0,0,0,
0,206,207,208,0,0,0,0,0,0,0,0,0,0,0,0,0,0,0,0,0,0,0,0,0,0,0,0,0,0,136,136,136,136,136,136,136,136,136,136,136,136,136,136,136,136,136,136,136,136,136,136,136,136,136,136,136,136,136,136,0,0,0,0,0,0,0,0,0,0,0,0,0,0,0,0,0,0,0,0,0,0,0,0,0,0,0,0,0,0,
0,225,226,227,0,0,0,0,0,0,0,0,0,0,0,0,173,173,0,0,0,0,0,0,0,0,0,0,0,0,154,156,154,154,154,154,154,155,154,154,154,154,154,154,154,154,154,154,154,154,154,155,154,154,154,154,154,154,154,154,0,0,0,0,0,0,0,0,0,0,0,0,0,0,0,0,0,0,0,0,0,0,0,0,0,0,0,0,0,0,
0,136,136,136,136,136,136,136,136,136,136,136,136,0,0,0,0,0,136,136,136,136,136,136,136,136,136,136,0,0,0,0,0,155,0,0,157,0,0,0,0,157,0,155,0,0,0,0,157,0,0,0,0,157,0,0,0,0,0,155,0,0,136,136,136,136,136,136,136,136,136,136,136,0,0,0,0,0,136,136,136,136,136,136,136,136,136,136,136,0,
0,0,0,0,0,0,0,0,0,0,0,0,262,0,0,0,0,0,2147483910,0,261,0,392,393,394,0,0,0,0,0,0,0,0,0,0,0,0,0,0,0,0,0,0,0,155,0,0,0,0,0,0,0,0,0,0,155,0,0,0,156,0,0,0,0,0,0,0,0,0,0,0,0,262,0,0,0,0,0,2147483910,0,0,0,0,0,0,0,0,0,0,0,
0,0,0,0,0,0,351,352,353,354,355,0,274,0,0,0,0,0,2147483922,0,273,0,413,414,415,0,0,0,0,0,174,174,175,175,0,174,174,174,156,174,174,174,174,174,0,0,174,174,174,174,174,174,174,174,0,174,175,175,174,174,0,0,0,0,0,0,0,0,0,0,0,0,274,0,0,0,0,0,2147483922,0,0,0,0,0,0,0,0,0,0,0,
0,173,173,173,173,173,372,373,374,375,376,173,173,0,0,0,0,0,173,173,0,0,173,173,173,173,173,173,0,0,0,0,0,0,0,0,0,84,99,0,0,55,0,0,0,0,0,0,55,0,0,97,83,0,0,0,0,0,0,0,0,0,174,174,0,0,0,0,174,0,0,174,174,0,0,0,0,0,174,174,0,0,0,0,174,0,0,174,174,0,
0,0,0,0,0,0,0,0,0,0,0,0,0,0,0,0,0,0,0,0,0,0,0,0,0,0,0,0,0,0,0,0,0,0,0,0,84,99,0,0,0,0,0,0,0,0,0,0,0,0,0,0,97,83,0,0,0,0,0,0,0,0,0,0,0,0,0,0,0,0,0,0,0,0,0,0,0,0,0,0,0,0,0,0,0,0,0,0,0,0,
0,0,299,0,0,0,0,0,0,0,0,0,0,0,0,0,0,0,0,0,0,0,0,0,0,0,0,0,0,0,0,0,0,0,0,0,80,0,0,0,0,0,0,59,60,60,61,0,0,0,0,0,55,78,0,0,0,0,0,0,0,0,0,0,0,0,0,0,0,0,0,0,0,0,0,0,0,0,0,0,0,0,0,0,0,0,0,0,0,0,
0,0,0,0,0,0,0,0,0,0,0,0,0,0,0,0,0,0,0,0,0,0,0,0,0,0,0,0,0,0,0,0,0,0,0,0,80,0,0,0,0,0,0,78,0,0,80,0,0,0,0,0,0,78,0,0,0,0,0,0,0,0,0,0,0,0,0,0,0,0,0,0,0,0,0,0,0,0,0,0,0,0,0,0,0,0,0,157,0,0,
0,0,0,0,0,0,0,0,0,0,0,0,0,0,0,0,0,0,0,0,0,0,0,0,0,0,0,0,0,0,0,0,0,0,0,0,80,0,0,0,0,0,0,78,0,0,80,0,0,0,0,0,0,78,0,0,0,0,0,0,0,0,0,0,0,0,0,0,0,0,0,0,0,0,0,0,0,0,0,0,0,0,0,0,0,0,174,174,174,0,
0,0,0,0,0,0,0,0,0,0,0,0,0,0,0,0,0,0,0,0,0,0,0,0,0,0,0,0,0,0,0,0,0,0,0,0,80,55,0,0,0,0,0,97,83,84,99,0,0,0,0,0,55,78,0,0,0,0,0,0,0,0,0,0,0,0,0,0,0,0,0,0,0,0,0,0,0,0,0,0,0,0,0,0,0,0,0,0,0,0,
0,0,0,0,0,0,0,0,0,0,0,0,0,0,326,327,328,0,0,0,0,0,0,0,0,0,0,0,0,0,0,0,0,0,0,0,80,0,0,0,0,0,0,0,78,80,0,0,0,0,0,0,0,78,0,0,0,0,0,0,0,0,0,0,0,0,0,0,0,0,0,0,0,0,0,0,0,0,0,0,0,0,0,0,0,0,0,0,0,0,
0,0,0,0,0,0,0,0,0,0,0,0,0,0,0,0,0,0,0,0,0,0,0,0,0,0,0,0,0,0,0,0,0,0,0,0,80,0,0,0,0,0,0,0,78,80,0,0,0,0,0,0,0,78,0,0,0,0,0,0,0,0,0,0,0,0,0,0,0,0,0,0,0,0,0,0,0,0,0,0,0,0,0,0,0,0,136,136,136,0,
0,0,0,0,0,0,0,0,0,0,0,0,0,0,0,0,0,0,0,0,0,0,0,0,0,0,0,0,0,0,0,0,0,0,0,0,80,55,0,0,0,0,0,0,78,80,0,0,0,0,0,0,55,78,0,0,0,0,0,0,0,0,0,0,0,0,0,0,0,0,0,0,0,0,0,0,0,0,0,0,0,0,0,0,0,0,0,0,0,0,
0,0,0,0,0,0,0,0,0,0,0,0,0,0,173,173,173,0,0,0,0,0,0,0,0,0,0,0,0,0,0,0,0,0,0,0,65,61,0,0,0,0,0,0,78,80,0,0,0,0,0,0,59,64,0,0,0,0,0,0,0,0,0,0,0,0,0,0,0,0,0,0,0,0,0,0,0,0,0,0,0,0,0,0,0,0,173,0,156,0,
0,0,0,0,0,0,0,0,0,0,0,0,0,0,0,0,0,0,0,0,0,0,0,0,0,0,0,0,0,0,0,0,0,0,0,0,0,65,61,0,0,55,0,0,180,182,0,0,55,0,0,59,64,0,0,0,0,0,0,0,0,0,0,0,0,0,0,0,0,0,0,0,0,0,0,0,0,0,0,0,0,0,0,0,0,0,0,0,0,0,
0,0,0,0,0,0,0,0,0,0,0,0,0,0,0,0,0,0,0,0,0,0,0,0,0,0,0,0,0,0,0,0,0,0,0,0,0,0,65,60,60,60,60,60,218,220,60,60,60,60,60,64,0,0,0,0,0,0,0,0,0,0,0,0,0,0,0,0,0,0,0,0,0,0,0,0,0,0,0,0,0,0,0,0,0,0,0,0,0,0,
0,0,299,0,0,0,0,0,0,0,0,0,0,0,0,0,0,0,0,0,0,0,0,0,0,0,0,0,0,0,0,0,0,0,0,0,0,0,0,0,0,0,0,0,0,0,0,0,0,0,0,0,0,0,0,0,0,0,0,0,0,0,0,0,0,0,0,0,0,0,0,0,0,0,0,0,0,0,0,0,0,0,0,0,0,0,0,0,0,0,
0,0,0,0,0,0,0,0,0,0,0,0,0,0,0,0,0,0,0,0,0,0,0,0,0,0,0,0,0,0,0,0,0,0,0,0,0,0,0,0,0,0,0,0,0,0,0,0,0,0,0,0,0,0,0,0,0,0,0,0,0,0,0,0,0,0,0,0,0,0,0,0,0,0,0,0,0,0,0,0,0,0,0,0,0,0,0,0,0,0,
0,60,60,60,60,60,60,60,60,60,60,60,60,180,181,181,181,182,60,60,60,60,60,60,60,60,60,60,0,0,0,0,0,0,0,0,0,0,0,0,0,0,0,0,0,0,0,0,0,0,0,0,0,0,0,0,0,0,0,0,0,0,60,60,60,60,60,60,60,60,60,60,60,180,181,181,181,182,60,60,60,60,60,60,60,60,60,60,60,0,
0,136,136,155,0,0,0,136,136,136,0,0,0,199,200,200,200,201,0,136,136,156,0,0,0,0,136,136,0,0,0,0,0,0,0,0,0,0,0,0,0,0,0,0,0,0,0,0,0,0,0,0,0,0,0,0,0,0,0,0,0,0,136,136,0,155,0,0,136,136,0,0,0,199,200,200,200,201,0,136,136,136,136,0,136,0,0,136,136,0,
0,0,0,0,0,0,157,0,347,348,349,155,0,199,200,200,200,201,0,0,347,348,349,0,157,0,0,155,0,0,0,0,0,0,0,0,0,0,0,0,0,0,0,0,0,0,0,0,0,0,0,0,0,0,0,0,0,0,0,0,0,0,0,0,0,0,0,0,0,0,0,0,155,199,200,200,200,201,0,0,155,0,0,0,0,0,155,0,0,0,
0,0,155,0,156,0,0,0,368,369,370,0,0,199,200,200,200,201,0,0,368,369,370,0,0,0,155,0,0,0,136,136,0,0,0,136,136,0,0,0,136,136,0,0,0,0,0,0,136,136,0,0,0,136,136,0,0,0,136,136,0,0,0,157,0,157,155,157,0,157,0,157,0,199,200,200,200,201,0,157,0,157,0,157,0,157,0,157,0,0,
0,0,0,0,0,0,155,0,0,0,0,0,269,199,200,200,200,201,269,0,0,155,156,0,0,0,0,0,0,0,0,0,0,0,0,0,0,0,0,0,0,0,0,0,0,0,0,0,0,0,0,0,0,0,0,0,0,0,0,0,0,0,155,0,0,0,0,0,0,0,0,155,0,199,200,200,200,201,0,0,0,0,155,0,0,0,0,0,0,0,
0,174,0,174,0,174,174,174,174,174,0,174,270,199,200,200,200,201,270,174,174,0,0,174,174,174,174,174,0,0,0,0,0,0,0,0,0,0,0,0,0,0,0,0,0,0,0,0,0,0,0,0,0,0,0,0,0,0,0,0,0,0,174,174,174,0,174,0,0,174,174,174,174,199,200,200,200,201,174,174,174,0,174,174,0,0,174,174,174,0,
0,0,0,0,78,0,0,0,0,0,0,0,0,199,200,200,200,201,0,0,0,0,0,0,0,0,0,0,0,0,173,173,0,0,0,0,173,0,0,0,173,173,0,0,0,0,0,0,173,173,0,0,0,0,173,0,0,0,173,173,0,0,0,0,0,0,0,0,0,0,0,0,269,199,200,200,200,201,269,0,0,0,0,0,0,0,0,0,0,0,
0,0,0,0,78,0,0,0,0,0,0,0,0,199,200,200,200,201,0,0,0,0,0,0,0,0,0,0,0,0,0,0,0,0,0,0,0,0,0,0,0,0,0,0,0,0,0,0,0,0,0,0,0,0,0,0,0,0,0,0,0,0,0,0,0,0,0,0,0,0,0,55,270,199,200,200,200,201,270,55,0,0,0,0,0,0,0,0,0,0,
0,0,0,0,78,0,0,0,0,0,0,0,0,218,219,219,219,220,0,0,0,0,0,0,0,0,0,0,136,136,0,0,0,0,0,0,0,0,0,0,0,0,0,0,0,0,0,0,0,0,0,0,0,0,0,0,0,0,0,0,0,0,60,60,60,60,60,60,60,60,60,60,281,218,219,219,219,220,281,60,60,60,60,60,60,60,60,60,60,0,
0,0,0,0,78,0,0,0,0,0,0,0,0,0,0,0,0,0,0,0,0,0,0,0,0,0,0,0,0,0,0,0,0,0,0,0,0,0,0,0,0,0,0,0,0,0,0,0,0,0,0,0,0,0,0,0,0,0,0,0,0,0,0,0,0,0,0,0,0,0,0,0,0,0,0,0,0,0,0,0,0,0,0,0,0,0,0,0,0,0,
0,0,0,0,78,0,0,0,0,0,0,0,0,0,0,0,0,0,0,0,0,0,0,0,0,0,0,0,0,0,0,0,0,0,0,0,0,0,0,0,0,0,0,0,0,0,0,0,0,0,0,0,0,0,0,0,0,0,0,0,0,0,0,0,0,0,0,0,0,0,0,0,0,0,0,0,0,0,0,0,0,0,0,0,0,0,0,0,0,0,
0,0,55,0,78,0,0,0,0,0,0,0,0,0,0,0,0,0,0,0,0,0,0,0,0,0,0,0,173,173,0,0,0,0,0,0,0,0,0,0,0,0,0,0,0,0,0,0,0,0,0,0,0,0,0,0,0,0,0,0,0,0,0,0,0,0,0,0,0,0,0,0,0,0,0,0,0,0,0,0,0,0,0,0,0,0,0,0,0,0,
0,0,0,0,78,0,0,0,0,0,0,0,0,0,0,0,0,0,0,0,0,0,0,0,0,0,0,0,0,0,0,0,0,0,0,0,0,0,0,0,0,0,0,0,0,0,0,0,0,0,0,0,0,0,0,0,0,0,0,0,0,0,0,0,0,0,0,0,0,0,0,0,0,0,0,0,0,0,0,0,0,0,0,0,0,0,0,0,0,0,
0,0,0,0,78,0,0,0,0,0,0,0,0,0,0,0,0,0,0,0,0,0,0,0,0,0,0,0,0,0,0,0,0,0,0,0,0,0,0,0,0,0,0,0,0,0,0,0,0,0,0,0,0,0,0,0,0,0,0,0,0,0,0,0,0,0,0,0,0,0,0,0,0,0,0,0,0,0,0,0,0,0,0,0,0,0,0,0,0,0,
0,0,55,0,78,0,0,0,0,0,0,0,0,0,0,0,0,0,0,0,0,0,0,0,0,0,0,0,0,0,0,0,0,0,0,0,0,0,0,0,0,0,0,0,0,0,0,0,0,0,0,0,0,0,0,0,0,0,0,0,0,0,0,0,0,0,0,0,0,0,0,0,0,0,0,0,0,0,0,0,0,0,136,136,136,136,136,136,136,0,
0,0,0,0,78,0,0,0,0,0,0,0,0,0,0,0,0,0,0,0,0,0,0,0,0,0,0,0,0,0,0,0,0,0,0,0,0,0,0,0,0,0,0,0,0,0,0,0,0,0,0,0,0,0,0,0,0,0,0,0,0,0,0,0,0,0,0,0,0,0,0,0,0,0,0,0,0,0,0,0,0,136,0,0,0,157,0,0,0,0,
0,0,0,0,78,0,0,0,0,0,0,0,0,0,0,0,0,0,0,0,0,0,0,0,0,0,0,0,0,0,0,0,0,0,0,0,0,0,0,0,0,0,0,0,0,0,0,0,0,0,0,0,0,0,0,0,0,0,0,0,0,0,0,0,0,0,0,0,0,0,0,0,0,0,0,0,0,0,0,0,0,0,154,154,0,0,0,154,154,0,
0,0,55,0,78,0,0,0,0,0,0,0,0,0,0,0,0,0,0,0,0,0,0,0,0,0,0,0,0,0,0,0,0,0,0,0,0,0,0,0,0,0,0,0,0,0,0,0,0,0,0,0,0,0,0,0,0,0,0,0,0,0,0,0,0,0,0,0,0,0,0,0,0,0,0,0,0,0,0,0,0,0,173,173,173,173,173,173,173,0,
0,0,0,0,78,0,0,0,0,0,0,0,0,0,0,0,0,0,0,0,0,0,0,0,0,0,0,0,0,0,0,0,0,0,0,0,0,0,0,0,0,0,0,0,0,0,0,0,0,0,0,0,0,0,0,0,0,0,0,0,0,0,0,0,0,0,0,0,0,0,0,0,0,0,0,0,0,0,0,0,0,173,0,0,0,0,0,0,0,0,
0,0,0,0,78,0,0,0,0,0,0,0,0,0,0,0,0,0,0,0,0,0,0,0,0,0,0,0,0,0,0,0,0,0,0,0,0,0,0,0,0,0,0,0,0,0,0,0,0,0,0,0,0,0,0,0,0,0,0,0,0,0,0,0,0,0,0,0,0,0,0,0,0,0,0,0,0,0,0,0,0,0,0,0,0,0,0,0,0,0,
0,0,0,0,78,0,0,0,0,0,0,0,0,0,0,0,0,0,0,0,0,0,0,0,0,0,0,0,0,0,0,0,0,0,0,0,0,0,0,0,0,0,0,0,0,0,0,0,0,0,0,0,0,0,0,0,0,0,0,0,0,0,0,0,0,0,0,0,0,0,0,0,0,0,0,0,0,0,0,0,0,0,0,0,0,0,0,0,0,0,
0,0,0,0,78,0,0,0,0,0,0,0,0,0,0,0,0,0,0,0,0,0,0,0,0,0,0,0,0,0,0,0,0,0,0,0,0,0,0,0,0,0,0,0,0,0,0,0,0,0,0,0,0,0,0,0,0,0,0,0,0,0,0,0,0,0,0,0,0,0,0,0,0,0,0,0,0,0,0,0,0,0,0,0,0,0,0,0,0,0,
0,0,0,0,78,0,0,0,0,0,0,0,0,0,0,0,0,0,0,0,0,0,0,0,0,0,0,0,0,0,0,0,0,0,0,0,0,0,0,0,0,0,0,0,0,0,0,0,0,0,0,0,0,0,0,0,0,0,0,0,0,0,0,0,0,0,0,0,0,0,0,0,0,0,0,0,0,0,0,0,0,0,0,0,0,0,0,0,0,0,
0,0,0,0,0,0,0,0,0,0,0,0,0,0,0,0,0,0,0,0,0,0,0,0,0,0,0,0,0,0,0,0,0,0,0,0,0,0,0,0,0,0,0,0,0,0,0,0,0,0,0,0,0,0,0,0,0,0,0,0,0,0,0,0,0,0,0,0,0,0,0,0,0,0,0,0,0,0,0,0,0,0,0,0,0,0,0,0,0,0
</data>
 </layer>
</map>
